RLCarls/TE3001B/data/runs/PD_kp35_kd0.6.csv
t,q[shoulder_pan],q[shoulder_lift],q[elbow_flex],q[wrist_flex],q[wrist_roll],qd[shoulder_pan],qd[shoulder_lift],qd[elbow_flex],qd[wrist_flex],qd[wrist_roll],qref[shoulder_pan],qref[shoulder_lift],qref[elbow_flex],qref[wrist_flex],qref[wrist_roll],tau_pid[shoulder_pan],tau_pid[shoulder_lift],tau_pid[elbow_flex],tau_pid[wrist_flex],tau_pid[wrist_roll],tau_dist[shoulder_pan],tau_dist[shoulder_lift],tau_dist[elbow_flex],tau_dist[wrist_flex],tau_dist[wrist_roll],tau_total[shoulder_pan],tau_total[shoulder_lift],tau_total[elbow_flex],tau_total[wrist_flex],tau_total[wrist_roll]
0.0,-0.07679999999991757,-1.6100000000006538,1.5699999999993148,0.9620000000002584,0.0,0.0,0.0,0.0,0.0,0.0,-0.07679999999991757,-1.6100000000006538,1.5699999999993148,0.9620000000002584,0.0,0.0,0.0,0.0,0.0,0.0,0.0005927490823580752,0.514830225473958,0.7865927366916465,0.6896653687453458,0.26602296743623904,0.0005927490823580752,0.514830225473958,0.7865927366916465,0.6896653687453458,0.26602296743623904
0.002,-0.07638388760218785,-1.6094871394354158,1.5697537979803637,0.961665781111223,3.010403362472005e-05,0.20805619886485682,0.2564302826189986,-0.12310100947551689,-0.1671094445177016,0.015052016812360024,-0.07672319999991765,-1.6083900000006532,1.5684299999993154,0.9610380000002582,0.0,-0.4818240798136755,0.8118847177194798,-0.5043688840965809,-0.232279889950547,-0.01694861307636446,0.008273717130251865,0.5176922599128168,0.7862144407602676,0.6880931894782979,0.2620053072823211,-0.4735503626834236,1.3295769776322965,0.2818455566636867,0.4558132995277509,0.2450566942059566
0.004,-0.07562737391475542,-1.608372965139407,1.569209253976735,0.9609804205498897,7.632603190643774e-05,0.3782568437162128,0.5570871480044208,-0.272272001814351,-0.34268028066664324,0.023110999140858842,-0.07664639999991774,-1.6067800000006525,1.5668599999993162,0.960076000000258,0.0,-0.9889472056691295,0.41080036449097007,-0.431741614302398,-0.11491435960839654,-0.026414486471820167,0.011428095665003808,0.521460074330065,0.7884253187825894,0.6828470769371872,0.2563554337339238,-0.9775191100041257,0.9322604388210352,0.3566837044801914,0.5679327173287906,0.22994094726210362
0.006,-0.07460700322691963,-1.606733407922873,1.5683876578426283,0.9599734337840864,0.00012646370838128402,0.5101853439178946,0.8197786082670243,-0.41079806705336314,-0.5034933829016844,0.02506883823742314,-0.07656959999991782,-1.605170000000652,1.5652899999993168,0.9591140000002576,0.0,-1.4112068519976648,0.041852220232946796,-0.35797822519882405,-0.0014466559351477767,-0.02922007632140563,0.013884494112358058,0.5216114089936074,0.7887478512946985,0.6777473943211322,0.2521486736135192,-1.3973223578853067,0.5634636292265541,0.43076962609587444,0.6763007383859844,0.2229285972921136
0.008,-0.07338579908760533,-1.6046377343856781,1.567309187392581,0.9586725755350873,0.00017169540932462346,0.6106020696571502,1.047836768597407,-0.5392352250236327,-0.6504291244995165,0.022615850471669714,-0.0764927999999179,-1.6035600000006511,1.5637199999993177,0.9581520000002574,0.0,-1.76244465104693,-0.29685463688914737,-0.2833146555304067,0.10818479935761606,-0.027110042264913328,0.01854840219868944,0.5204315146896559,0.7884403830220564,0.6750590927254235,0.24761408641101176,-1.7438962488482406,0.2235768778005085,0.5051257274916497,0.7832438920830396,0.22050404414609842
0.01,-0.07201514692314201,-1.602148769013236,1.5659930572091962,0.9571042111940578,0.00020836968621825748,0.6853260822316612,1.2444826862209721,-0.6580650916924716,-0.7841821705148051,0.018337138446817003,-0.07641599999991798,-1.6019500000006506,1.5621499999993183,0.9571900000002571,0.0,-2.0547752977048503,-0.6073172581833611,-0.20800909345748447,0.21393933849321456,-0.0228805163547533,0.02263735656007366,0.5223220421551585,0.787574020555366,0.6745455710746496,0.24124071557958604,-2.032137941144777,-0.08499521602820259,0.5795649270978815,0.8884849095678642,0.21836019922483274
0.012,-0.07053711185535905,-1.5993228329603346,1.564457527620581,0.955293328655976,0.0002377009254547465,0.739017533891482,1.4129680264507583,-0.7677647943076724,-0.9054412690408332,0.01466561961824452,-0.07633919999991806,-1.6003400000006498,1.5605799999993188,0.9562280000002569,0.0,-2.2978367948545855,-0.8918356006547117,-0.1322933129184183,0.31579966676296845,-0.019223484534693542,0.029435409064853753,0.5249898126129342,0.7880721289970981,0.6721024887549585,0.23659913864930848,-2.2684013857897316,-0.3668457880417775,0.6557788160786798,0.9879021555179269,0.21737565411461493
0.014,-0.0689856006675205,-1.5962105854091855,1.5627202023099565,0.9532630481392664,0.00026077235591404703,0.7757555939192692,1.5561237755745918,-0.8686626553122921,-1.0151402583548077,0.01153571522965026,-0.07626239999991814,-1.5987300000006492,1.5590099999993197,0.9552660000002566,0.0,-2.5002695275973865,-1.1523470786545926,-0.05648291986893789,0.4139573737495302,-0.016080883384509054,0.034614517858319836,0.5314987896251981,0.7856922984444586,0.6711167856851029,0.23205718380050575,-2.465655009739067,-0.6208482890293945,0.7292093785755207,1.0850741594346331,0.2159763004159967
0.016,-0.06738830633834657,-1.5928570740431647,1.5607975215951122,0.9510351997979553,0.0002785262950783327,0.7986471645869717,1.6767556830103987,-0.9613403574220994,-1.1139241706556113,0.008876969582142857,-0.07618559999991824,-1.5971200000006485,1.5574399999993203,0.9543040000002564,0.0,-2.668523687653498,-1.3909781718017418,0.019319873237839444,0.5084276555065792,-0.01338745431819972,0.043609002457221165,0.5367804986708787,0.7839953862121172,0.6685335667950507,0.22841132432587202,-2.624914685196277,-0.854197673130863,0.8033152594499566,1.17696122230163,0.2150238700076723
0.018000000000000002,-0.06576707310148419,-1.589302894091318,1.55870527280912,0.9486299699065837,0.0002907857573482269,0.8106166184311878,1.7770899759232628,-1.0461243929961335,-1.2026149456857878,0.006129731134947093,-0.07610879999991832,-1.595510000000648,1.555869999999321,0.953342000000256,0.0,-2.808966018030902,-1.609222069902066,0.09485444112356288,0.5993823926972428,-0.010525272135853291,0.049956264537798126,0.5403836239183947,0.7859889545226444,0.668629044877413,0.22226232786343098,-2.7590097534931037,-1.0688384459836713,0.8808433956462073,1.2680114375746558,0.21173705572757767
0.020000000000000004,-0.06413973575583744,-1.5855846469822144,1.556458907409551,0.9460665446474885,0.00029664371638680895,0.8136686728233758,1.8591235545518852,-1.123182699784513,-1.2817126295475567,0.002928979519291044,-0.0760319999999184,-1.5939000000006474,1.5542999999993217,0.9523800000002558,0.0,-2.9257608282550316,-1.8084106058404181,0.16975956079164262,0.6867881154199147,-0.007081014127336145,0.05401696105906744,0.5443500661941812,0.7842605478178492,0.6646718786256439,0.2170663258906047,-2.8717438671959643,-1.2640605396462368,0.9540201086094917,1.3514599940455585,0.20998531176326857
0.022000000000000006,-0.06252074928243882,-1.5817349223154191,1.5540727380181285,0.9433623022755184,0.0002964905364134502,0.8094932366993088,1.9248623333976234,-1.1930846957112486,-1.352121185985032,-7.65899866793816e-05,-0.07595519999991848,-1.5922900000006466,1.5527299999993223,0.9514180000002556,0.0,-3.022459012088957,-1.9900486600048466,0.24399032924122982,0.7709302303423577,-0.0037733114178659963,0.06127479582006136,0.5454135667024683,0.7832977564834777,0.6631306991218455,0.2083006169669017,-2.9611842162688955,-1.4446350933023782,1.0272880857247075,1.4340609294642033,0.2045273055490357
0.024000000000000007,-0.06092107492142056,-1.5777831234956865,1.5515604656896358,0.9405337682632282,0.00029094830606278294,0.7998371805091345,1.9758994098663523,-1.2561361642463933,-1.4142670061450944,-0.002771115175333627,-0.07587839999991856,-1.590680000000646,1.551159999999323,0.9504560000002553,0.0,-3.1030098059018805,-2.155190575477566,0.31733623874723565,0.8517768758246341,-0.0007376920434161586,0.06604735850686656,0.5515955368904303,0.7852598971539603,0.6596205171483227,0.20277950269174522,-3.036962447395014,-1.603595038587136,1.102596135901196,1.511397392972957,0.20204181064832905
0.02600000000000001,-0.05934952734196846,-1.5737547042247388,1.5489353936578334,0.9375960277575088,0.0002816440749350446,0.785773789726047,2.0142096354738768,-1.3125360159012183,-1.4688702528596833,-0.004652115563869165,-0.07580159999991865,-1.5890700000006452,1.5495899999993237,0.9494940000002551,0.0,-3.1696940142509256,-2.3055831035798984,0.3895242843403186,0.9295306158003624,0.0014519690869286344,0.07403535918055054,0.5543915797847757,0.785208545621224,0.6574384508550541,0.19774712114076684,-3.095658655070375,-1.7511915237951228,1.1747328299615427,1.5869690666554166,0.19919909022769547
0.02800000000000001,-0.057812427272657986,-1.5696726033138682,1.546209928087548,0.9345633175691844,0.0002703039253110279,0.7685500346552355,2.0410504554353883,-1.3627327851426154,-1.516355094162199,-0.005670074812008363,-0.07572479999991873,-1.5874600000006447,1.5480199999993245,0.9485320000002548,0.0,-3.225435957733291,-2.4420691903163423,0.4604839895889579,1.0042037646340092,0.002718767779498529,0.0767638298990493,0.5579979800455497,0.7848522384988336,0.6568392163774214,0.19424347609987846,-3.1486721278342418,-1.8840712102707926,1.2453362280877915,1.6610429810114304,0.196962243879377
0.030000000000000013,-0.05631513425315937,-1.5655569298449057,1.5433957626179045,0.9314490735081469,0.0002586234328620739,0.7486465097493085,2.0578367344812514,-1.4070827348218125,-1.5571220305187692,-0.0058402462244769955,-0.07564799999991881,-1.585850000000644,1.546449999999325,0.9475700000002545,0.0,-3.271158017864236,-2.565825330037116,0.5301023598556028,1.0758080706014046,0.003057440662244418,0.08304422476690418,0.5609301092104595,0.7874383841622852,0.653871537462495,0.1905828219853915,-3.188113793097332,-2.004895220826657,1.317540744017888,1.7296796080638996,0.19364026264763592
0.032000000000000015,-0.05486109064594319,-1.561425429510741,1.5405043017167848,0.9282654270667807,0.0002478136539812762,0.7270218036080915,2.0657501670822893,-1.4457304505598902,-1.5918232206830694,-0.005404889440398866,-0.07557119999991889,-1.5842400000006434,1.5448799999993257,0.9466080000002542,0.0,-3.309207357941186,-2.6777960894440502,0.5981271747845462,1.144557512145878,0.002718728386093271,0.08867323518439413,0.5611692187258872,0.7838497870660588,0.6502851738502201,0.18396176478265708,-3.2205341227567916,-2.116626870718163,1.381976961850605,1.7948426859960982,0.18668049316875035
0.034000000000000016,-0.053452721990856655,-1.5572938864047032,1.5375456463824468,0.9250235927523748,0.0002381951959123704,0.7041843275432667,2.0657715530188727,-1.4793276671689204,-1.6209171572029752,-0.004809229034452892,-0.07549439999991897,-1.5826300000006426,1.5433099999993265,0.945646000000254,0.0,-3.3407868367714366,-2.778723224555618,0.6647016118705695,1.210548825368067,0.0021882084211742015,0.09806013032139275,0.5631109982683826,0.7830614597840524,0.6476900242758066,0.18011077788366062,-3.242726706450044,-2.2156122262872353,1.447763071654622,1.8582388496438735,0.18229898630483482
0.03600000000000002,-0.05209107097711682,-1.5531758153485458,1.5345296065028966,0.921734058086923,0.00022977943687903116,0.6808255068699162,2.0590355280787755,-1.5080199397751277,-1.6447673327258716,-0.004207879516669624,-0.07541759999991905,-1.581020000000642,1.541739999999327,0.9446840000002538,0.0,-3.367690249055818,-2.869654613744328,0.7296235335117723,1.2738267714618217,0.0016358071278343924,0.10254636408993456,0.5680862701271622,0.7845200929089314,0.6426079768308985,0.17510893122171653,-3.2651438849658834,-2.301568343617166,1.5141436264207038,1.9164347482927202,0.17674473834955093
0.03800000000000002,-0.0507771673129021,-1.5490824989197327,1.5314656502289503,0.9184061611130788,0.00022235923130536632,0.6569518321073609,2.04665821440648,-1.531978136973124,-1.6639484869220607,-0.003710102786832422,-0.07534079999991913,-1.5794100000006412,1.540169999999328,0.9437220000002535,0.0,-3.389862972777716,-2.9517014902570864,0.7927191021325073,1.3346069610504756,0.001184404094547281,0.10534944131701782,0.5721483990956602,0.7832041877651776,0.6414968250489766,0.17064033835739179,-3.284513531460698,-2.3795530911614264,1.575923289897685,1.9761037860994524,0.17182474245193907
0.04000000000000002,-0.04951161562966641,-1.5450236995764266,1.528362338762422,0.9150490768530204,0.00021576492675239866,0.6327758416178426,2.0293996716530245,-1.5516557332641767,-1.678542130029192,-0.0032971522764838252,-0.07526399999991921,-1.5778000000006407,1.5385999999993285,0.9427600000002533,0.0,-3.40783646962064,-3.0255373909551952,0.8540404077243082,1.392762991719037,0.0008155824214549547,0.10908569055720678,0.5754316455444191,0.7796078730779926,0.6361717647769582,0.16649885347579516,-3.298750779063433,-2.4501057454107764,1.633648280802301,2.028934756495995,0.16731443589725012
0.04200000000000002,-0.04829435065985708,-1.541007769949333,1.525227481734353,0.9116707166807768,0.00020985597414016044,0.608632484904667,2.0079648135468338,-1.5674285140345092,-1.6891800861218096,-0.00295447630611911,-0.0751871999999193,-1.5761900000006401,1.537029999999329,0.9417980000002529,0.0,-3.4225196043707964,-3.091815029812255,0.9136084456592103,1.4485789426253115,0.0005151614396490677,0.11568037690549832,0.575463623449478,0.7814757227753721,0.6314070028328147,0.1631702280609354,-3.3068392274652982,-2.516351406362777,1.6950841684345823,2.079985945458126,0.16368538950058448
0.044000000000000025,-0.04712453452917777,-1.5370421889499364,1.5220690114386917,0.9082784070605321,0.00020452335905499585,0.5849080653396556,1.9827904996982733,-1.5792351478306585,-1.6961548101223727,-0.0026663075425822896,-0.07511039999991939,-1.5745800000006394,1.53545999999933,0.9408360000002527,0.0,-3.4350139809045044,-3.1508467833354756,0.9711344158661281,1.502113022460758,0.0002672134631630306,0.11752907753887054,0.58144190525769,0.7846579289197001,0.6281777405300396,0.15773335221437954,-3.3174849033656337,-2.5694048780777856,1.7557923447858284,2.1302907629907977,0.15800056567754256
0.04600000000000003,-0.04600168225174792,-1.5331324274009481,1.5188944071802066,0.9048790555131836,0.0001996443207896461,0.5614261387149234,1.9548807744940822,-1.587302129242467,-1.6996757736742365,-0.0024395191326748774,-0.07503359999991947,-1.5729700000006388,1.5338899999993305,0.9398740000002525,0.0,-3.444877083122646,-3.2038194026109448,1.0265450286973605,1.5533737208163236,8.089420766530745e-05,0.12051273352751858,0.587077298628617,0.7838470411705006,0.6249537046847956,0.1512636859055115,-3.3243643495951276,-2.616742103982328,1.810392069867861,2.178327425501119,0.1513445801131768
0.04800000000000003,-0.04492485354630409,-1.529282933523899,1.5157101922288858,0.9014790265744258,0.00019510178152557395,0.5384143527219166,1.9247469385245548,-1.5921074756604237,-1.7000144693788815,-0.002271269632036072,-0.07495679999991955,-1.571360000000638,1.5323199999993313,0.9389120000002522,0.0,-3.4527893150476365,-3.2512706952283263,1.0799726884118113,1.6024237927475253,-4.540037509856345e-05,0.12290731373947719,0.5929853899169534,0.7837836282090851,0.6237238626833337,0.14640052436084122,-3.3298820013081594,-2.658285305311373,1.8637563166208964,2.226147655430859,0.14635512398574266
0.05000000000000003,-0.04389297235321509,-1.5254972119935857,1.5125224897516736,0.8980844013679179,0.00019082082418998652,0.515940596544502,1.8928607651566742,-1.5938512386061197,-1.6973126032539327,-0.002140478667793722,-0.07487999999991964,-1.5697500000006375,1.530749999999332,0.937950000000252,0.0,-3.459009238723559,-3.293720867629285,1.1313676177816712,1.6492408024283036,-0.00013388513955638797,0.12720458782867977,0.5952434919327073,0.7840115864909645,0.6197931483541418,0.1409093042273559,-3.3318046508948793,-2.6984773756965774,1.9153792042726356,2.2690339507824455,0.1407754190877995
0.05200000000000003,-0.04290455217298032,-1.5217784113202857,1.509337051916316,0.8947003785847135,0.00018673025829289995,0.49421009011738465,1.8594003366499852,-1.5927189176788008,-1.6920113916021922,-0.0020452829485432832,-0.07480319999991972,-1.5681400000006367,1.5291799999993325,0.9369880000002517,0.0,-3.4641949420937417,-3.331293200875849,1.1806813461559404,1.6940296126061327,-0.00018568449643135195,0.13054953765318153,0.6018794384732451,0.7828592246192525,0.6144971368962767,0.13668105902863362,-3.3336454044405603,-2.729413762402604,1.963540570775193,2.3085267495024095,0.13649537453220226
0.054000000000000034,-0.04195815361051664,-1.5181283204547116,1.5061590043054776,0.8913315031470352,0.000182788624647797,0.47319928123184196,1.8250454327871046,-1.5890238054192414,-1.6844377188391204,-0.0019708168225514803,-0.0747263999999198,-1.5665300000006361,1.5276099999993333,0.9360260000002514,0.0,-3.468383533020182,-3.3648677324421907,1.227974274904355,1.7369281227211115,-0.00021661190171050988,0.13261810189351275,0.6047691420233359,0.7817625879949407,0.6077908448523823,0.1332304229386764,-3.3357654311266693,-2.760098590418855,2.0097368628992958,2.3447189675734936,0.13301381103696588
0.056000000000000036,-0.041052427714475606,-1.5145485857224916,1.5029931085603963,0.8879817206418835,0.00017897182065660405,0.45286294802051785,1.7898673661100053,-1.5829478725405974,-1.674891252575843,-0.0019084019955964793,-0.07464959999991988,-1.5649200000006354,1.526039999999334,0.9350640000002511,0.0,-3.471547282113689,-3.3944783483628833,1.2732261556348092,1.7780671616309878,-0.00023590032002442085,0.1377309767555292,0.6065586620501595,0.7827996655016551,0.6035120813695826,0.12802075976014468,-3.3338163053581598,-2.7879196863127236,2.0560258211364646,2.3815792430005702,0.12778485944012025
0.05800000000000004,-0.0401855663632613,-1.5110404134801407,1.4998439512405501,0.8846549070552489,0.0001752351235512986,0.4334306756071532,1.7540861211754564,-1.5745786599230323,-1.6634067933173253,-0.0018683485526527215,-0.07457279999991996,-1.5633100000006348,1.5244699999993347,0.9341020000002509,0.0,-3.4744325833096994,-3.4203846725698392,1.316356060186085,1.8173935378128312,-0.00023162737406654454,0.14028239270219797,0.6124779050594333,0.7818883409245638,0.6008662300448148,0.12302440238270958,-3.3341501906075015,-2.807906767510406,2.098244401110649,2.418259767857646,0.12279277500864304
0.06000000000000004,-0.039356117829819647,-1.5076039159976011,1.49671545459205,0.8813547733930942,0.0001715450573899003,0.4147242667208289,1.7182487412697527,-1.5642483242500476,-1.6500668310773365,-0.0018450330806991466,-0.07449599999992004,-1.5617000000006342,1.5228999999993353,0.9331400000002507,0.0,-3.4766598724925837,-3.4433479745211018,1.3574748796820053,1.8548907368051615,-0.00020954369619765375,0.14425213486283928,0.6169515291501174,0.7813595548878043,0.597312289882442,0.11813445369860448,-3.3324077376297443,-2.8263964453709844,2.1388344345698096,2.4522030266876036,0.11792491000240683
0.06200000000000004,-0.038562426061407834,-1.5042389774274816,1.4936112420544374,0.8780845335884986,0.00016787608142212728,0.3968458842059072,1.6824692850598164,-1.5521062688062925,-1.6351199022978264,-0.0018344879838865151,-0.07441919999992012,-1.5600900000006335,1.521329999999336,0.9321780000002504,0.0,-3.478620862974642,-3.4635324700632606,1.3965748357985102,1.890668413604386,-0.0001736816416244842,0.15058174224180512,0.6208993528938853,0.7802835536029497,0.5912951044094024,0.11507898809967744,-3.3280391207328366,-2.8426331171693753,2.1768583894014597,2.4819635180137887,0.11490530645805296
0.06400000000000004,-0.037802569947601845,-1.500945155412487,1.4905345484253756,0.8748467362907798,0.0001642329085917719,0.37992805690299275,1.6469110074973003,-1.5383468145309596,-1.6188986488594104,-0.0018215864151776891,-0.0743423999999202,-1.558480000000633,1.5197599999993368,0.9312160000002502,0.0,-3.4808078129852777,-3.4811843108580702,1.4336916359389553,1.9249083991210563,-0.00014074204648161079,0.1552647612000874,0.6251323053156383,0.7818523665750127,0.5896668602701546,0.11194786046734724,-3.3255430517851905,-2.856052005542432,2.215544002513968,2.514575259391211,0.11180711842086563
0.06600000000000004,-0.03707493688767354,-1.4977216708536965,1.4874885332381675,0.8716442016754574,0.0001606178216810469,0.3638165299641505,1.6117422793953582,-1.5230075936040417,-1.601267307661192,-0.001807543455362502,-0.07426559999992029,-1.5568700000006321,1.5181899999993373,0.9302540000002498,0.0,-3.4829170713737474,-3.4965702815275956,1.4687536341469873,1.9574592063063736,-0.00010941803738923625,0.16322850244635267,0.6257832001707351,0.7835353643140726,0.5873323402545627,0.10870290661368018,-3.3196885689273947,-2.870787081356861,2.2522889984610597,2.544791546560936,0.10859348857629095
0.06800000000000005,-0.03637755577080659,-1.4945679108964591,1.4844760705897209,0.8684793438271062,0.000157030721318816,0.3486905584334746,1.5768799786186285,-1.5062313242232983,-1.5824289241756155,-0.001793550181115456,-0.07418879999992037,-1.5552600000006316,1.5166199999993382,0.9292920000002496,0.0,-3.4855705621635336,-3.509598427654657,1.5017715891836345,1.9884146325521554,-7.839817736183217e-05,0.1711010315658232,0.6266299350789941,0.7801118040590995,0.5856070350187405,0.10169267715610919,-3.3144695305977105,-2.882968492575663,2.281883393242734,2.574021667570896,0.10161427897874736
0.07000000000000005,-0.035708611805188965,-1.4914828894213286,1.4814991402044457,0.8653543993157551,0.0001534196161413458,0.33447198280881163,1.54251073756528,-1.488465192637621,-1.5624722556755641,-0.0018055525887350874,-0.07411199999992045,-1.5536500000006308,1.5150499999993388,0.9283300000002493,0.0,-3.4886842503136575,-3.520569383139775,1.5329971102207764,2.017792020670117,-1.8465949135718866e-05,0.17766419488527954,0.6264800877549821,0.7758463479878102,0.5827389405002251,0.09679648396699497,-3.311020055428378,-2.894089295384793,2.3088434582085866,2.6005309611703424,0.09677801801785925
0.07200000000000005,-0.03506658221664388,-1.4884654876508947,1.4785593808171138,0.8622711742190216,0.0001497727524162741,0.32101479427254065,1.5087008852168964,-1.4698796936659875,-1.5416125483667709,-0.0018234318625358602,-0.07403519999992053,-1.5520400000006302,1.5134799999993394,0.9273680000002491,0.0,-3.4919704685287822,-3.5296206649868562,1.5624986908148186,2.045705863044712,4.840079861767252e-05,0.18261767155274497,0.6278847051249932,0.7727648708740897,0.5789982593833406,0.08987967244768107,-3.3093527969760372,-2.9017359598618633,2.335263561688908,2.6247041224280525,0.08992807324629874
0.07400000000000005,-0.03445022691490839,-1.4855141722121912,1.475658308367823,0.8592310901283562,0.000145872990855375,0.3081776508677438,1.4756577193517455,-1.4505362246454634,-1.520042045332662,-0.0019498807804495444,-0.07395839999992063,-1.5504300000006295,1.5119099999993402,0.9264060000002489,0.0,-3.49513436389966,-3.537103732482483,1.590272260796837,2.072262237607976,0.00023798728642721641,0.18849053433336233,0.6308625501403594,0.7734838013426486,0.5736047931645561,0.08359682777784268,-3.3066438295662977,-2.9062411823421237,2.3637560621394855,2.645867030772532,0.08383481506426989
0.07600000000000005,-0.03385822359379085,-1.4826270751870012,1.4727976158680733,0.8562350925289898,0.00014147945991092154,0.2960016605587727,1.4435485125950143,-1.4303462498748531,-1.4979987996832218,-0.0021967654722267376,-0.07388159999992071,-1.548820000000629,1.5103399999993408,0.9254440000002486,0.0,-3.498379455270616,-3.5433273941254613,1.6162033052873788,2.0976088101111285,0.0005664782784161461,0.1915858139463347,0.6343248050057,0.7718030441306147,0.5708732031299717,0.07930055668078584,-3.306793641324281,-2.909002589119761,2.3880063494179935,2.6684820132411002,0.07986703495920199
0.07800000000000006,-0.03328965820360231,-1.4798021428865493,1.469978451703921,0.8532843128876118,0.0001367635533360081,0.2842826950942712,1.4124661502259044,-1.4095820820762548,-1.475389820689034,-0.002357953287456717,-0.07380479999992079,-1.5472100000006281,1.5087699999993416,0.9244820000002483,0.0,-3.501218547028182,-3.5485037498266547,1.6404467850847895,2.1216577944046615,0.0008049001916683391,0.1936835892351566,0.6391317663057543,0.7714774979413559,0.5673786342673165,0.07144463879187528,-3.3075349577930253,-2.9093719835209004,2.4119242830261456,2.689036428671978,0.07224953898354362
0.08000000000000006,-0.0327437272580735,-1.477037085735884,1.4672018889461946,0.8503795634314547,0.00013140215682324517,0.2729654727644053,1.3825285753325554,-1.3882813788631205,-1.4523747280785135,-0.0026806982563814625,-0.07372799999992087,-1.5456000000006276,1.5071999999993422,0.923520000000248,0.0,-3.5035585909064033,-3.5528894190826983,1.6629957356805884,2.14450461531169,0.0012294338491319172,0.20003385330898563,0.6419730872242069,0.7714585832123545,0.5633124354122531,0.06877585675454233,-3.3035247375974177,-2.910916331858491,2.434454318892943,2.707817050723943,0.07000529060367425
0.08200000000000006,-0.03221906259467866,-1.4743298336690567,1.4644688410033235,0.8475214062961189,0.00012597008332021318,0.2623323316974184,1.3536260334137202,-1.3665239714354966,-1.4290785676678985,-0.0027160367515159886,-0.07365119999992095,-1.543990000000627,1.5056299999993428,0.9225580000002478,0.0,-3.5062576414555577,-3.556413467302183,1.6838776623328837,2.1662254969621415,0.0013387467912026705,0.20052403315795342,0.6435798955697508,0.7673380894558335,0.553353637452458,0.06274306015259525,-3.3057336082976043,-2.9128335717324325,2.451215751788717,2.7195791344145994,0.06408180694379792
0.08400000000000006,-0.03171512863099803,-1.4716783723245181,1.461779614101096,0.8447094934079064,0.00012041590323218838,0.2519669818403155,1.3257306722692896,-1.3446134511137675,-1.4059564441062897,-0.002777090044012407,-0.07357439999992103,-1.5423800000006263,1.5040599999993436,0.9215960000002476,0.0,-3.5082291772789453,-3.5591173977600574,1.7032955246170796,2.1871459093425036,0.0014779411718285197,0.20550028084889063,0.6442178627773639,0.7652553747471976,0.5521179638247751,0.05808031917338892,-3.3027288964300547,-2.9148995349826934,2.4685508993642773,2.7392638731672787,0.05955826034521744
0.08600000000000006,-0.031230757564628023,-1.4690808126402433,1.4591345150981052,0.8419445439104057,0.000114909331233552,0.2421855331850027,1.2987798421374364,-1.3225495014953632,-1.3824747487502809,-0.0027532859993181875,-0.07349759999992111,-1.5407700000006257,1.5024899999993442,0.9206340000002473,0.0,-3.5104084141349112,-3.5609889878089396,1.7212395266556746,2.206877877781846,0.0015231812855834265,0.21026777423338078,0.6472503497140035,0.7666186549395712,0.5496946839005489,0.05352760399680915,-3.3001406399015303,-2.913738638094936,2.4878581815952456,2.7565725616823946,0.05505078528239257
0.08800000000000006,-0.030764878976672422,-1.4665349388954103,1.456534051312452,0.8392269111596334,0.00010957692004062024,0.23293929397779983,1.2729368724164905,-1.300231892826577,-1.3588163753861275,-0.0026662055964658824,-0.0734207999999212,-1.539160000000625,1.500919999999345,0.9196720000002471,0.0,-3.5127387877218017,-3.5623454550782627,1.7376237182710437,2.225542294566756,0.001496560780265947,0.21614765982943537,0.6488215390394205,0.7685081569398807,0.5436218157013314,0.04826794254647263,-3.2965911278923663,-2.913523916038842,2.5061318752109245,2.769164110268087,0.04976450332673858
0.09000000000000007,-0.030316344339166277,-1.4640387188702948,1.45397864689194,0.8365563201932447,0.00010438623372620026,0.22426731875307274,1.2481100125577034,-1.2777022102560347,-1.335295483194413,-0.002595343157209986,-0.07334399999992128,-1.5375500000006244,1.4993499999993456,0.9187100000002467,0.0,-3.5154061179583938,-3.5631395680743942,1.7524639974018241,2.2433645045119803,0.0014859448784447077,0.21836830180984265,0.6551507775146326,0.77107447738231,0.5391486992699208,0.044812418888383075,-3.297037816148551,-2.9079887905597617,2.523538474784134,2.7825132037819014,0.046298363766827784
0.09200000000000007,-0.029884548459347023,-1.46158951744369,1.45146856711309,0.8339326013787208,9.946304931502311e-05,0.21589793990962752,1.224600713302468,-1.2550398894249495,-1.3118594072619196,-0.00246159220558857,-0.07326719999992136,-1.5359400000006236,1.4977799999993462,0.9177480000002465,0.0,-3.517719242380596,-3.5638986968565347,1.7658076819705082,2.260310969207832,0.001402680980737411,0.2180434834400372,0.6585059521312915,0.7705653663112434,0.535745413779379,0.03767479655515509,-3.299675758940559,-2.9053927447252432,2.5363730482817517,2.796056382987211,0.0390774775358925
0.09400000000000007,-0.0294691840398736,-1.4591851355869199,1.4490035949365927,0.8313556618372138,9.450922660978743e-05,0.20768220973671098,1.2021909283849839,-1.2324860882486648,-1.2884697707535375,-0.002476911352617844,-0.07319039999992144,-1.534330000000623,1.496209999999347,0.9167860000002462,0.0,-3.519297489979217,-3.5644054750532757,1.7778302475856866,2.276356616955526,0.0014837994247204206,0.22258246117818464,0.6636906457350492,0.7708096127318858,0.532142381927027,0.03572265853460748,-3.2967150288010325,-2.9007148293182263,2.5486398603175724,2.808498998882553,0.0372064579593279
0.09600000000000007,-0.029069256015369145,-1.4568231886801786,1.4465834522648087,0.8288252662763727,8.978513315417675e-05,0.19996401225222674,1.1809734533706877,-1.210071335892038,-1.2651977804205439,-0.002362046727805333,-0.07311359999992152,-1.5327200000006223,1.4946399999993476,0.915824000000246,0.0,-3.5211389805680064,-3.564885141838459,1.7885616229281072,2.2915559331664754,0.0014187358531631846,0.22669543500946168,0.6628675096187564,0.7734655120333629,0.5304416783888612,0.032530180313218617,-3.294443545558545,-2.9020176322197027,2.56202713496147,2.8219976115553367,0.0339489161663818
0.09800000000000007,-0.028683893588983506,-1.4545021587948674,1.4442080434374056,0.8263413392849591,8.526385016553496e-05,0.1926812131928196,1.1605149426555976,-1.1877044137015615,-1.2419634957067618,-0.002260641494320894,-0.0730367999999216,-1.5311100000006217,1.4930699999993484,0.9148620000002458,0.0,-3.5231368870235857,-3.56479167322761,1.7979408577835512,2.3058544026200885,0.0013658474057924104,0.23179574241570433,0.6660781397111457,0.7724506228388706,0.5263864745365774,0.02761052251963749,-3.2913411446078813,-2.8987135335164647,2.5703914806224217,2.832240877156666,0.0289763699254299
0.10000000000000007,-0.028312156653367525,-1.4522199490203844,1.4418767093009797,0.823903400067522,8.089774300875356e-05,0.18586846780799057,1.141104887241457,-1.1656670682129464,-1.2189696087185402,-0.0021830535783907007,-0.07295999999992168,-1.5295000000006211,1.491499999999349,0.9139000000002455,0.0,-3.5254505669583485,-3.5646141786985974,1.8061855467776842,2.319403461316969,0.0013371468344671453,0.2377680622788283,0.668714424641681,0.7707576003755954,0.5214568132642121,0.02576120389221273,-3.28768250467952,-2.8958997540569165,2.5769431471532798,2.840860274581181,0.027098350726679876
0.10200000000000008,-0.027953071917308517,-1.4499745878834531,1.4395886331114427,0.8215107859290869,7.668913539832521e-05,0.17954236802950463,1.1226805684656098,-1.144038094768475,-1.1963070692175706,-0.00210430380521417,-0.07288319999992178,-1.5278900000006204,1.4899299999993496,0.9129380000002452,0.0,-3.52819293125991,-3.5643436594664286,1.8133761051558506,2.332279964534661,0.001305126618118973,0.24275267593802524,0.6707532786652823,0.7679902650098882,0.5176428190064125,0.022439299778478184,-3.2854402553218844,-2.8935903808011463,2.581366370165739,2.849922783541073,0.023744426396597157
0.10400000000000008,-0.027605880133579938,-1.4477642295104267,1.4373427954459739,0.8191629362143477,7.261750823850026e-05,0.1735958918642887,1.105179186513193,-1.1229188327343977,-1.17392485736961,-0.002035813579912478,-0.07280639999992186,-1.5262800000006198,1.4883599999993504,0.9119760000002449,0.0,-3.531128151202631,-3.5639659817328813,1.8196150134480091,2.3444593488251995,0.0012826168588532959,0.24714077578999413,0.6730183111035221,0.7676257912617966,0.5107802893495225,0.01690270194593056,-3.283987375412637,-2.8909476706293593,2.587240804709806,2.855239638174722,0.018185318804783853
0.10600000000000008,-0.027269949910964673,-1.4455870632002286,1.4351383975611745,0.8168588019441883,6.863448522305007e-05,0.16796511130763217,1.088583155099072,-1.1021989423997094,-1.1520671350796932,-0.0019915115077250925,-0.07272959999992194,-1.524670000000619,1.486789999999351,0.9110140000002447,0.0,-3.534127802792856,-3.563528906272361,1.8248497368858574,2.356133445902725,0.001285567790368717,0.253727743177676,0.6741686960758462,0.7681544240835505,0.5101068903779427,0.01121453455610228,-3.28040005961518,-2.889360210196515,2.593004160969408,2.8662403362806677,0.012500102346470997
0.10800000000000008,-0.026944407339378442,-1.4434415006031458,1.4329746249635718,0.814598135821213,6.46986779993667e-05,0.16277128579311592,1.072781298541337,-1.08188629880138,-1.1303330614876583,-0.001967903611841688,-0.07265279999992202,-1.5230600000006185,1.4852199999993518,0.9100520000002444,0.0,-3.5375804456644224,-3.5629402768741874,1.8291109804178396,2.367026552257626,0.0013106740206556534,0.2589145482889986,0.6768283085312856,0.7655249792373529,0.5072779197716059,0.010152604415920327,-3.278665897375424,-2.8861119683429015,2.5946359596551924,2.8743044720292317,0.01146327843657598
0.11000000000000008,-0.026628643394977586,-1.4413257613218098,1.4308502455922187,0.8123803345735591,6.084007188631486e-05,0.1578819722004273,1.05786964066802,-1.0621896856764634,-1.1089006238269428,-0.0019293030565259192,-0.0725759999999221,-1.5214500000006177,1.4836499999993524,0.9090900000002442,0.0,-3.5411711013714884,-3.562405701038869,1.8325830313985043,2.377275264379825,0.001318290113177344,0.26330497932964575,0.6773906623319146,0.7654832741727968,0.5010319462111547,0.002863805545031959,-3.277866122041843,-2.8850150387069546,2.598066305571301,2.8783072105909797,0.004182095658209303
0.11200000000000009,-0.026322189077830783,-1.4392384155060352,1.428764317907231,0.8102042700486888,5.699602793878825e-05,0.15322715857340186,1.0436729078873335,-1.0429638424939276,-1.0880322624351488,-0.0019220219737633058,-0.07249919999992219,-1.5198400000006171,1.482079999999353,0.9081280000002439,0.0,-3.5447435545940897,-3.5617369499953124,1.8351933413602608,2.3870857951248485,0.0013601736990172006,0.2662934427207876,0.6821601668072494,0.7677953928866198,0.4977734563564561,-0.0011126225672225551,-3.278450111873302,-2.879576783188063,2.6029887342468805,2.8848592514813047,0.00024755113179464544
0.11400000000000009,-0.026024765540755366,-1.4371775623181477,1.4267160383987674,0.8080691740196632,5.3162272846353526e-05,0.14871176853770865,1.0304265939437123,-1.024139754231757,-1.067548014512805,-0.001916877546217361,-0.07242239999992227,-1.5182300000006164,1.4805099999993538,0.9071660000002436,0.0,-3.5480606057812416,-3.5613397114023155,1.8369184558854705,2.3963474777161324,0.0014042792177363257,0.27069099521753354,0.6835621379499026,0.7643415325594461,0.49405825171237494,-0.0032602485483035886,-3.2773696105637082,-2.8777775734524127,2.601259988444917,2.8904057294285073,-0.0018559693305672629
0.11600000000000009,-0.025735897536410313,-1.4351417757756846,1.4247039427695325,0.8059742340204462,4.9360340849827504e-05,0.14443400217252594,1.0178932712316113,-1.0060478146174476,-1.047469999608479,-0.0019009659982630117,-0.07234559999992235,-1.5166200000006158,1.4789399999993544,0.9062040000002434,0.0,-3.551420650482854,-3.5609385908179276,1.838034993141784,2.4050919889398044,0.00143613252646419,0.2736010868810077,0.6844245616422117,0.7625613893690389,0.4908188802980078,-0.008772370718447445,-3.277819563601846,-2.876514029175716,2.600596382510823,2.895910869237812,-0.007336238191983256
0.11800000000000009,-0.025455318525421024,-1.43312976697659,1.4227267390576237,0.8039186558267072,4.556070854296329e-05,0.14028950549464383,1.0060043995473948,-0.9886018559544285,-1.0277890968695178,-0.0018998161534321044,-0.07226879999992243,-1.515010000000615,1.4773699999993553,0.9052420000002431,0.0,-3.554560579095897,-3.5604891547498263,1.8385226377122483,2.41332877357915,0.0014841991321474695,0.2789721412470672,0.6863763480070865,0.7616774581565942,0.4873844253148601,-0.014039152905331974,-3.2755884378488296,-2.87411280674274,2.6002000958688427,2.9007131988940102,-0.012554953773184503
0.12000000000000009,-0.025182438471758332,-1.4311401574754068,1.4207832038836918,0.8019015765574677,4.174347760323937e-05,0.13644002683134662,0.9948047505915244,-0.9717675869659675,-1.0085396346196938,-0.0019086154698619627,-0.07219199999992251,-1.5134000000006145,1.4757999999993558,0.9042800000002429,0.0,-3.55795840384753,-3.560109190038705,1.8383952633267142,2.421099065181899,0.0015434439415680761,0.28744964158235214,0.6900715206835977,0.7609522348259236,0.4801710455400758,-0.01836673286728481,-3.2705087622651776,-2.8700376693551073,2.5993474981526377,2.9012701107219745,-0.016823288925716735
0.1220000000000001,-0.024916335755651605,-1.4291713982402183,1.4188721219743512,0.7999216001259521,3.789753769028654e-05,0.13305135805336363,0.9843796175942018,-0.9555409546702694,-0.9899882157577968,-0.0019229699564764138,-0.0721151999999226,-1.511790000000614,1.4742299999993564,0.9033180000002426,0.0,-3.5621262666843805,-3.559980039292444,1.8376876609385986,2.428617355568684,0.0016091780391595954,0.2893776138583926,0.694249740406152,0.7614843335603942,0.4760120868472656,-0.026861356936968207,-3.272748652825988,-2.865730298886292,2.5991719944989926,2.9046294424159496,-0.025252178897808612
0.1240000000000001,-0.024657035481061094,-1.4272219885504396,1.4169923701847649,0.7979777510934184,3.3401532304341814e-05,0.1296501372952556,0.9747048448893844,-0.9398758947931741,-0.9719245162668914,-0.0022480026929723646,-0.07203839999992268,-1.5101800000006131,1.4726599999993573,0.9023560000002423,0.0,-3.565784323769171,-3.560127886312634,1.8364023591836083,2.435755876124137,0.002025115357177195,0.29276451910763956,0.6979535547379031,0.7650514107085958,0.4725632499970304,-0.03348048393030338,-3.2730198046615313,-2.862174331574731,2.601453769892204,2.9083191261211674,-0.03145536857312618
0.12600000000000008,-0.0244043156836675,-1.4252906082354848,1.4151431384560313,0.7960691195921414,2.816938915761559e-05,0.12635989869679717,0.9656901574774216,-0.9246158643667372,-0.9543157506384763,-0.0026160715733631107,-0.07196159999992276,-1.5085700000006126,1.4710899999993579,0.9013940000002421,0.0,-3.569281645568929,-3.560479127682643,1.8344548470819686,2.4425098250424044,0.002497969549369638,0.2973849062511455,0.7000042017809761,0.7617864282362166,0.4688914333846938,-0.04082272333670366,-3.271896739317784,-2.860474925901667,2.596241275318185,2.911401258427098,-0.03832475378733403
0.12800000000000009,-0.024157789750725654,-1.4233761558604803,1.4133228435397067,0.794194811028743,2.2144375819993774e-05,0.12326296647092277,0.9572261875023088,-0.9101474581622822,-0.9371542816992336,-0.0030125066688109076,-0.07188479999992284,-1.5069600000006118,1.4695199999993587,0.9004320000002418,0.0,-3.5728675616793533,-3.560924682099274,1.8321647811640644,2.4488917001174433,0.0030123423256251496,0.30421303430389346,0.704531905881066,0.7598519760464608,0.46598797734127734,-0.04612330372979573,-3.26865452737546,-2.856392776218208,2.5920167572105255,2.9148796774587207,-0.043110961404170575
0.1300000000000001,-0.023916821519947975,-1.4214772860177716,1.41153003918536,0.792354002714063,1.567641316291074e-05,0.12048411538883913,0.9494349213543634,-0.8964021771733504,-0.9204041573400169,-0.003233981328541516,-0.07180799999992292,-1.5053500000006113,1.4679499999993593,0.8994700000002416,0.0,-3.5769234875620377,-3.5616891250002487,1.8295290074016177,2.4548927417558,0.0033400260188924703,0.3082300283013239,0.7042825459486842,0.75596887843253,0.4636119284861341,-0.05153712561022972,-3.2686934592607138,-2.8574065790515646,2.5854978858341475,2.918504670241934,-0.04819709959133725
0.1320000000000001,-0.0236812068353013,-1.4195933337714282,1.4097631223078,0.7905459528738779,9.054308386372911e-06,0.11780734232333731,0.9419761231716544,-0.8834584387799697,-0.9040249200925421,-0.0033110523882689154,-0.07173119999992301,-1.5037400000006105,1.4663799999993599,0.8985080000002413,0.0,-3.5808804982009197,-3.562322702730814,1.8266520773594317,2.4604994193522565,0.0035108788706558597,0.31489968881935043,0.7031648520803003,0.7533856308297235,0.4599758289724696,-0.055788283207793006,-3.265980809381569,-2.8591578506505138,2.5800377081891552,2.920475248324726,-0.052277404337137144
0.1340000000000001,-0.02345040706308963,-1.4177237633175297,1.4080206784851514,0.7887697204426573,2.660370004257703e-06,0.11539988610583427,0.9347852269492611,-0.8712219113243261,-0.8881162156102961,-0.003196969191057604,-0.0716543999999231,-1.50213000000061,1.4648099999993607,0.8975460000002411,0.0,-3.5852278360585643,-3.5627564349067766,1.8235117716927383,2.465800261630463,0.003468504828172909,0.3215947545448491,0.7059015635493492,0.7499310347823848,0.45412318592283885,-0.05922299948030649,-3.2636330815137153,-2.8568548713574273,2.573442806475123,2.919923447553302,-0.05575449465213358
0.1360000000000001,-0.023223950105376652,-1.4158675334651656,1.4063011962090741,0.7870240604868175,-3.225372102333246e-06,0.11322847885648937,0.9281149261820242,-0.859741138038674,-0.8728299779198813,-0.0029428710532954745,-0.07157759999992318,-1.5005200000006091,1.4632399999993613,0.8965840000002407,0.0,-3.5899087186351015,-3.5633857213802584,1.820188895276455,2.4709264782792326,0.0032655160395411924,0.3224502388797033,0.710862154808981,0.7500575674596764,0.45277836169134217,-0.06502719710957852,-3.267458479755398,-2.8525235665712776,2.5702464627361317,2.9237048399705747,-0.06176168107003733
0.1380000000000001,-0.02300214913467142,-1.4140234345218627,1.4046035355680266,0.7853083202015227,-8.708678013779268e-06,0.11090048535261718,0.9220494716513784,-0.8488303205237783,-0.8578701426474025,-0.0027416529557230114,-0.07150079999992326,-1.4989100000006086,1.461669999999362,0.8956220000002405,0.0,-3.593841102235228,-3.5643768839612866,1.8165886959387902,2.4756838384461304,0.0031154713012095,0.3248551501060059,0.7181316405717775,0.7486078632389034,0.4518779837468838,-0.07134538405717258,-3.2689859521292224,-2.846245243389509,2.5651965591776937,2.927561822193014,-0.06822991275596309
0.1400000000000001,-0.022785020348724816,-1.4121900439042887,1.4029263739900557,0.7836218897974369,-1.3979576965031073e-05,0.10856439297330155,0.9166953087869734,-0.838580788985451,-0.8432152020429282,-0.002635449475625903,-0.07142399999992334,-1.497300000000608,1.4600999999993627,0.8946600000002403,0.0,-3.5974247623988584,-3.5659358345925987,1.81281607585545,2.480069441459026,0.0030671887308767053,0.326182820557039,0.7195385797555943,0.7494289435727675,0.44530055227024906,-0.07423851676776046,-3.2712419418418195,-2.8463972548370045,2.562245019428217,2.925369993729275,-0.07117132803688375
0.1420000000000001,-0.02257266930927316,-1.4103668136877372,1.4012687697177046,0.7819633791963735,-1.895564462485716e-05,0.10617551972582752,0.9116151082757024,-0.8288021361755017,-0.8292553005317054,-0.0024880338299130425,-0.07134719999992342,-1.4956900000006073,1.4585299999993633,0.89369800000024,0.0,-3.6005316617352694,-3.5674722149995395,1.8087669170537926,2.4843841508915303,0.002969746938072774,0.32876750068664456,0.720686861787489,0.7473398390718229,0.4411099954296273,-0.08033651699380087,-3.2717641610486248,-2.8467853532120504,2.556106756125615,2.9254941463211575,-0.0773667700557281
0.1440000000000001,-0.022364982473543998,-1.4085532274486903,1.399629445983434,0.7803317846468993,-2.371395359249129e-05,0.10384341786458051,0.9067931195234326,-0.8196618671353364,-0.8157972747370678,-0.0023791544838170655,-0.0712703999999235,-1.4940800000006067,1.456959999999364,0.8927360000002398,0.0,-3.60346553279548,-3.568984617789916,1.8045980272637703,2.488512789726276,0.002911870873481472,0.33282107436920644,0.7207715581155657,0.7435784575291763,0.43690469017989064,-0.08360700167599286,-3.2706444584262737,-2.8482130596743502,2.5481764847929465,2.9254174799061667,-0.08069513080251138
0.1460000000000001,-0.022161646631659055,-1.406748907102896,1.3980069821064665,0.7787261295161555,-2.8279543483079e-05,0.10166792094247079,0.9021601728970936,-0.811231938483757,-0.8028275653719407,-0.0022827949452938552,-0.07119359999992358,-1.492470000000606,1.4553899999993647,0.8917740000002395,0.0,-3.606517844772466,-3.570391315874684,1.8004037936186505,2.4924653628042197,0.002865267641044456,0.3374759076003554,0.721590931285096,0.7404254280260698,0.43447103014728355,-0.08966754929596911,-3.2690419371721107,-2.848800384589588,2.5408292216447204,2.9269363929515033,-0.08680228165492465
0.1480000000000001,-0.021962300390040143,-1.4049533972807855,1.396400047548687,0.7771456787912545,-3.271297241387119e-05,0.09967312080945656,0.8977549110552936,-0.8034672788896662,-0.7902253624505015,-0.0022167144653960948,-0.07111679999992367,-1.4908600000006054,1.4538199999993655,0.8908120000002392,0.0,-3.6097789376260936,-3.5717646114244324,1.7961938911274984,2.496171968106885,0.0028502594874185968,0.3405613784681978,0.7244474220811464,0.7387437557729651,0.4288166600619687,-0.0935218062201595,-3.269217559157896,-2.847317189343286,2.5349376469004636,2.9249886281688537,-0.0906715467327409
0.1500000000000001,-0.021766817056122982,-1.4031660064101261,1.3948075214574773,0.775589245962081,-3.703363694922949e-05,0.09774166695857966,0.8936954353296608,-0.7962630456048218,-0.7782164145867262,-0.0021603322676791506,-0.07103999999992375,-1.4892500000006046,1.452249999999366,0.889850000000239,0.0,-3.6129408280590627,-3.5732974978258487,1.7919296561255267,2.4998143262414247,0.0028444595559813457,0.34638806125750976,0.7264073882699926,0.7353303186594474,0.424450129521434,-0.09844412903398819,-3.266552766801553,-2.846890109555856,2.527259974784974,2.9242644557628585,-0.09559966947800684
0.1520000000000001,-0.02157472209054267,-1.4013861937541785,1.3932281242215345,0.774055869139083,-4.12803076745413e-05,0.09604748279015476,0.8899063279738659,-0.7896986179714433,-0.7666884114990089,-0.0021233353626559045,-0.07096319999992383,-1.487640000000604,1.4506799999993667,0.8888880000002387,0.0,-3.6165063222640104,-3.5749060090944025,1.7877063037224312,2.5033330255231716,0.002859027472315575,0.3491947649368748,0.7283541353851655,0.7306400893583129,0.4215628542304688,-0.10561176227788117,-3.2673115573271354,-2.8465518737092372,2.518346393080744,2.9248958797536404,-0.1027527348055656
0.1540000000000001,-0.021385984338438118,-1.3996134466052965,1.3916604727612045,0.7725448118213871,-4.58683692696488e-05,0.09436887605227602,0.8863735744410396,-0.7838257301649896,-0.7555286588479461,-0.0022940307975537534,-0.07088639999992391,-1.4860300000006033,1.4491099999993675,0.8879260000002385,0.0,-3.6198790273009935,-3.5765910232783003,1.7836029068664165,2.5066638786847704,0.003106501467156581,0.3536808255285689,0.7325435186603595,0.7263367794812788,0.41519651706921634,-0.1120867239383495,-3.2661982017724247,-2.844047504617941,2.5099396863476953,2.9218603957539866,-0.10898022247119292
0.1560000000000001,-0.021200341498736994,-1.397846997307819,1.390103292235323,0.7710548665556867,-5.094487815267689e-05,0.09282141985056272,0.8832246487387702,-0.7785902629407853,-0.7449726328502421,-0.002538254441514044,-0.07080959999992399,-1.4844200000006027,1.447539999999368,0.8869640000002382,0.0,-3.6233893472973553,-3.578561701398242,1.7796210875026195,2.5099958385872077,0.0034412134138216803,0.3590222914101146,0.7328898387248941,0.7236185295343079,0.4121463621340182,-0.11856961390207837,-3.2643670558872406,-2.8456718626733477,2.5032396170369275,2.922142200721226,-0.11512840048825669
0.1580000000000001,-0.021017451156124026,-1.3960866586828782,1.388555550447172,0.7695853119032703,-5.654568521151487e-05,0.09144517130648426,0.8801693124703336,-0.7738708940754829,-0.7347773262082165,-0.002800403529418988,-0.07073279999992407,-1.482810000000602,1.445969999999369,0.886002000000238,0.0,-3.627169401699638,-3.5804191882977254,1.775707904959014,2.513173200349441,0.0038024670662413114,0.36166157021022877,0.7324159113424391,0.7186692758242965,0.4116054644789806,-0.12417224979616838,-3.2655078314894093,-2.8480032769552865,2.4943771807833106,2.9247786648284215,-0.12036978272992707
0.16000000000000011,-0.02083735192538662,-1.394332329233021,1.3870159999380252,0.7681357841371447,-6.25035825471761e-05,0.09004961536870328,0.8771647249286526,-0.769775254573479,-0.7247638830628059,-0.0029789486678306124,-0.07065599999992417,-1.4812000000006014,1.4443999999993695,0.8850400000002376,0.0,-3.6307020929265716,-3.5821075584727486,1.7719773606912024,2.516078011372347,0.004076406888873262,0.3661657450927967,0.7346534789214166,0.7174570859755582,0.411111718927478,-0.13119091459195578,-3.2645363478337748,-2.847454079551332,2.4894344466667606,2.927189730299825,-0.12711450770308252
0.16200000000000012,-0.020659819351537177,-1.3925835877620296,1.3854838384330683,0.7667058640695111,-6.884583884769841e-05,0.08876628692471977,0.8743707354957216,-0.7660807524784355,-0.714960033816755,-0.003171128150261154,-0.07057919999992425,-1.4795900000006008,1.4428299999993701,0.8840780000002374,0.0,-3.634358273430177,-3.5838674410834193,1.7682985005045537,2.5187380392431287,0.004370350035628032,0.36870772605095603,0.7338926786008506,0.7175952618577659,0.4084130986321669,-0.13803421748705622,-3.265650547379221,-2.8499747624825686,2.48589376236232,2.9271511378752955,-0.1336638674514282
0.16400000000000012,-0.020484895789557388,-1.3908404255164448,1.3839584912332008,0.765294819467632,-7.551482607972429e-05,0.08746178098989543,0.8715811227923661,-0.7626735999337303,-0.705522300939581,-0.00333449361601294,-0.07050239999992433,-1.4779800000006,1.441259999999371,0.8831160000002372,0.0,-3.637774781250632,-3.58541046852631,1.7646094790315645,2.5212774679194094,0.004636854602727841,0.3725529368938,0.7385310174446584,0.7106129799337545,0.4051027148031668,-0.14508436730774146,-3.265221844356832,-2.8468794510816515,2.475222458965319,2.926380182722576,-0.14044751270501363
0.16600000000000012,-0.02031243165600522,-1.3891020581367621,1.3824385717421013,0.7639018865817652,-8.245308861511605e-05,0.08623206677608274,0.8691836898413166,-0.7599597455497529,-0.6964664429334435,-0.0034691312676958788,-0.07042559999992441,-1.4763700000005995,1.4396899999993715,0.8821540000002369,0.0,-3.64122120065768,-3.587310932700889,1.7612374371863542,2.523722577991225,0.0048752688668632325,0.37495206817378834,0.7397904747965036,0.706248767814682,0.39878440878683163,-0.1472283063830352,-3.2662691324838917,-2.8475204579043853,2.467486205001036,2.9225069867780564,-0.14235303751617195
0.16800000000000012,-0.02014246449866146,-1.387368226129317,1.3809231198447476,0.7625259049691125,-8.891255435367506e-05,0.08498357867188049,0.8669160037225826,-0.7577259486768769,-0.6879908063262914,-0.0032297328692795016,-0.0703487999999245,-1.4747600000005987,1.4381199999993723,0.8811920000002367,0.0,-3.6444422726601067,-3.5892118009156455,1.7580628638255946,2.52623539715234,0.00469602816078258,0.3786928545604879,0.7398638001347365,0.7011070392352157,0.39362393576380145,-0.15219984695449268,-3.265749418099619,-2.849348000780909,2.4591699030608103,2.9198593329161415,-0.1475038187937101
0.17000000000000012,-0.01997483730705968,-1.38563883108524,1.3794111438695513,0.7611659293586518,-9.485477789109866e-05,0.08381359580089186,0.8646975220384706,-0.7559879875981779,-0.6799878052303734,-0.002971111768711799,-0.07027199999992458,-1.4731500000005981,1.436549999999373,0.8802300000002364,0.0,-3.6477116383483295,-3.5910042439575456,1.7551275407000984,2.5287594982932937,0.004488926652833661,0.3830334395407008,0.7394210553234482,0.6995887611951479,0.38915854776944553,-0.15454335596594126,-3.2646781988076286,-2.8515831886340974,2.454716301895246,2.917918046062739,-0.1500544293131076
0.17200000000000013,-0.019809330457240204,-1.383913871796004,1.3779021051583165,0.7598211161048424,-0.00010033924459834154,0.08275342490973753,0.8624796446180877,-0.7545193556174135,-0.6724066269047311,-0.002742233353621439,-0.07019519999992466,-1.4715400000005974,1.4349799999993735,0.8792680000002361,0.0,-3.651129196646946,-3.592620263717751,1.752289607414689,2.5312761641789234,0.004308598938370861,0.3872721913968005,0.7396706786595497,0.698041516196787,0.3835495813012341,-0.16093512638902685,-3.2638570052501454,-2.852949585058201,2.450331123611476,2.9148257454801576,-0.156626527450656
0.17400000000000013,-0.01964576381273958,-1.3821932370675052,1.376395488905187,0.7584904978080995,-0.00010547454469787605,0.08178332225031242,0.860317364249452,-0.7533081265647182,-0.6653091483714113,-0.0025676500497672553,-0.07011839999992474,-1.4699300000005968,1.4334099999993744,0.8783060000002358,0.0,-3.6546542462722083,-3.59414129180984,1.7495566712404305,2.5338480368435876,0.00418346386978778,0.38969708392721314,0.7426245502425751,0.6963855590789831,0.37963667515391764,-0.16619895792453493,-3.264957162344995,-2.8515167415672646,2.445942230319414,2.9134847119975054,-0.16201549405474716
0.17600000000000013,-0.019484202022110042,-1.380476473762176,1.3748907551128735,0.7571733696963149,-0.00011033567862470563,0.08078089531476884,0.858381652664626,-0.7523668961567685,-0.6585640558923016,-0.0024305669634147884,-0.07004159999992482,-1.468320000000596,1.431839999999375,0.8773440000002356,0.0,-3.657951799247486,-3.5958248087408364,1.7469542864593688,2.536397273226324,0.004096021685798929,0.392309635230096,0.7438644873347859,0.6938162114607564,0.3756728181383016,-0.17109948207282763,-3.26564216401739,-2.8519603214060503,2.4407704979201252,2.9120700913646256,-0.1670034603870287
0.17800000000000013,-0.01932465572582503,-1.3787633770261813,1.3733873138663426,0.7558690555632789,-0.00011498056180394562,0.07977314814250508,0.8565483679973036,-0.7517206232654597,-0.6521570665180102,-0.002322441589619997,-0.0699647999999249,-1.4667100000005955,1.4302699999993758,0.8763820000002354,0.0,-3.661094018824308,-3.5975052049187037,1.7445182098385963,2.5389273814472273,0.004037628228741301,0.3969329294492723,0.7428835509919249,0.6910888315803088,0.3706423038817378,-0.18010233288347363,-3.264161089375036,-2.854621653926779,2.435607041418905,2.909569685328965,-0.17606470465473234
0.18000000000000013,-0.019166867474153408,-1.3770540287389716,1.3718846241771794,0.75457676674675,-0.00011983750586152846,0.0788941258358123,0.8546741436048444,-0.7513448445816071,-0.6461444082644274,-0.0024284720287914194,-0.06988799999992498,-1.465100000000595,1.4286999999993764,0.8754200000002351,0.0,-3.664460845798801,-3.5989784866173893,1.7422480866500627,2.541493477526861,0.004217569757086648,0.40170305176029425,0.7442435530556671,0.6887201458996155,0.36544453847286723,-0.18688586569075447,-3.2627577940385066,-2.8547349335617223,2.430968232549678,2.9069380159997285,-0.18266829593366782
0.18200000000000013,-0.019010598886514074,-1.3753481931775244,1.3703821951223476,0.7532957162348818,-0.00012509782791807406,0.0781342938196672,0.852917780723588,-0.7512145274159315,-0.6405252559341317,-0.0026301610282727992,-0.06981119999992506,-1.4634900000005941,1.427129999999377,0.8744580000002349,0.0,-3.6680432213315237,-3.6004763995709013,1.7401416122606863,2.544110708330263,0.004507986980210349,0.40505612091783716,0.7460702058258614,0.684778621283002,0.36144686867027476,-0.19142573100749785,-3.2629871004136866,-2.85440619374504,2.4249202335436886,2.905557577000538,-0.1869177440272875
0.18400000000000014,-0.01885582190086967,-1.3736455796602578,1.3688793826466197,0.7520253232504603,-0.000130532550236789,0.07738849282220263,0.8513067586332641,-0.7514062378639939,-0.6351964922107224,-0.0027173611593574714,-0.06973439999992515,-1.4618800000005936,1.4255599999993778,0.8734960000002345,0.0,-3.6715591776428274,-3.6020490375237753,1.7382723491862992,2.546718492359724,0.004674741260117114,0.4086241178340065,0.7487780491032391,0.6799102233755248,0.3578772718780102,-0.19576317677736765,-3.2629350598088207,-2.8532709884205363,2.418182572561824,2.904595764237734,-0.19108843551725055
0.18600000000000014,-0.01870247477052378,-1.3719458037212051,1.367375476968542,0.7507650876880152,-0.00013593020886835526,0.07667356517294387,0.849887969526366,-0.7519528390387848,-0.6301177812225998,-0.0026988293157831317,-0.06965759999992523,-1.4602700000005928,1.4239899999993784,0.8725340000002343,0.0,-3.675058509289359,-3.603777424210719,1.7366853063613055,2.5492985823941936,0.004724716096688109,0.4138119997085542,0.74905296890397,0.67782375728536,0.35463666356643536,-0.19972538622905092,-3.261246509580805,-2.854724455306749,2.4145090636466655,2.903935245960629,-0.1950006701323628
0.18800000000000014,-0.018550295108242174,-1.3702488543040285,1.365870150033328,0.7495145523454911,-0.00014109683322444648,0.07608983114080423,0.848474708588315,-0.7526634676070325,-0.6252676712620221,-0.0025833121780456042,-0.06958079999992531,-1.4586600000005923,1.4224199999993792,0.871572000000234,0.0,-3.6788304464691497,-3.605400611188614,1.7352570511407468,2.5518450926990077,0.004665010897372536,0.4152094839798072,0.7516709533187043,0.6785441943999344,0.3521114035169892,-0.20407771088574622,-3.2636209624893424,-2.8537296578699096,2.4138012455406814,2.903956496215997,-0.1994126999883737
0.19000000000000014,-0.0183995334038973,-1.368554443655567,1.3643633796300736,0.7482733386709773,-0.00014600795113400158,0.07538085217243731,0.8472053242307299,-0.7533852016271335,-0.6206068372568798,-0.0024555589547775574,-0.0695039999999254,-1.4570500000005915,1.4208499999993798,0.8706100000002338,0.0,-3.6821650688119605,-3.6071237928052495,1.733881228724161,2.554338053711547,0.004588531295733482,0.4214862265056259,0.7528895526010679,0.6718687083178099,0.3483016811319366,-0.21185110472541518,-3.2606788423063344,-2.854234240204182,2.405749937041971,2.9026397348434836,-0.2072625734296817
0.19200000000000014,-0.01824977422069366,-1.3668624102575517,1.362854364464074,0.7470409654882684,-0.00015109977617103377,0.07487959160181874,0.8460166990075959,-0.7545075829998295,-0.6161865913544698,-0.002545912518516089,-0.06942719999992548,-1.455440000000591,1.4192799999993804,0.8696480000002336,0.0,-3.6859904564916275,-3.608865062039243,1.732855361720749,2.556822995082348,0.004754325481013937,0.4245984990228077,0.7568961404576209,0.6694901052268266,0.3442619035832057,-0.2131646117138522,-3.26139195746882,-2.851968921581622,2.4023454669475757,2.9010848986655535,-0.20841028623283828
0.19400000000000014,-0.018101068291427887,-1.36517229628341,1.3613428130032437,0.7458168943117096,-0.00015593783127188497,0.07435296463288639,0.8450569870707968,-0.7557757304151357,-0.6120355882793884,-0.0024190275504256025,-0.06935039999992557,-1.4538300000005902,1.4177099999993812,0.8686860000002333,0.0,-3.6896737277885117,-3.6108501450783925,1.7320100742591764,2.5593307332089097,0.004677865045389232,0.42875585215200984,0.7578469503415561,0.6653191777543507,0.3382891392252799,-0.2171223197768398,-3.260917875636502,-2.8530031947368366,2.397329252013527,2.8976198724341895,-0.21244445473145057
0.19600000000000015,-0.017953318417676993,-1.3634840571835198,1.3598283131233893,0.7446003750662604,-0.00016056311488277014,0.07387493687544641,0.8441195499450718,-0.7572499399271628,-0.6082596227245857,-0.002312641805442594,-0.06927359999992565,-1.4522200000005896,1.4161399999993818,0.867724000000233,0.0,-3.6934213924002064,-3.612791527418095,1.7314003535546445,2.561950315304405,0.004621194201210266,0.4333187065261921,0.761223152916463,0.6621051812364336,0.33358100755039755,-0.22047184744220152,-3.2601026858740143,-2.851568374501632,2.3935055347910783,2.8955313228548025,-0.21585065324099126
0.19800000000000015,-0.01780638884883367,-1.361797356316042,1.3583105611417545,0.7433908540781906,-0.00016500255244995026,0.07346478442166236,0.8433504337389193,-0.7588759908173536,-0.6047604940349314,-0.0022197187835900655,-0.06919679999992573,-1.450610000000589,1.4145699999993826,0.8667620000002327,0.0,-3.697294997169636,-3.614907137129713,1.7309976638229354,2.5646240645873446,0.00457692256911926,0.4397659108577208,0.7633661111215952,0.6597897099334303,0.32969081558151747,-0.22726483309667878,-3.2575290863119153,-2.8515410260081175,2.390787373756366,2.894314880168862,-0.2226879105275595
0.20000000000000015,-0.017659931310726316,-1.3601120614425641,1.3567893912447375,0.7421879110777692,-0.0001693270099405984,0.07322876905367579,0.8426474367388429,-0.7605849485085464,-0.6014715002107005,-0.0021622287453240746,-0.06911999999992581,-1.4490000000005883,1.4129999999993832,0.8658000000002325,0.0,-3.7016058274397614,-3.6170591793825397,1.7307588958664561,2.5673136858433345,0.004570138532219013,0.4452032719576435,0.76457425018844,0.6586727279822141,0.3216951939970125,-0.23276869026491562,-3.256402555482118,-2.8524849291941,2.38943162384867,2.889008879840347,-0.2281985517326966
0.20200000000000015,-0.017513789746119536,-1.3584281700560727,1.3552648320665643,0.7409905902327769,-0.0001736441121522656,0.07307078230339051,0.8419456932457354,-0.7622795890866152,-0.5986604224960991,-0.00215855110583359,-0.06904319999992589,-1.4473900000005877,1.4114299999993838,0.8648380000002323,0.0,-3.706105313910824,-3.619156940513766,1.73061511002961,2.570225734716626,0.004622458559288172,0.4477444302302281,0.761387011747339,0.6562424118960595,0.3188626487487183,-0.2367778533802953,-3.258360883680596,-2.8577699287664267,2.38685752192567,2.889088383465344,-0.23215539482100714
0.20400000000000015,-0.01736819415744496,-1.356746229092139,1.35373677682504,0.7397987115624354,-0.00017790775011238753,0.07279779433728857,0.8409704819668063,-0.7640276207621943,-0.5959393351707477,-0.002131818980060973,-0.06896639999992597,-1.445780000000587,1.4098599999993846,0.863876000000232,0.0,-3.710256175097749,-3.6207939305598207,1.730617017202356,2.5730922551995183,0.004648729585270031,0.45196408779331665,0.764179643668487,0.6489728156182143,0.31397603537457974,-0.2404624742852005,-3.258292087304432,-2.856614286891334,2.3795898328205705,2.8870682905740983,-0.2358137446999305
0.20600000000000016,-0.017223116501871492,-1.3550659036963888,1.352204559912717,0.7386118402088768,-0.00018209569152678975,0.07253882778673294,0.8401626978751341,-0.7661084561614637,-0.5934356767792881,-0.0020939707072011155,-0.06888959999992605,-1.4441700000005864,1.4082899999993852,0.8629140000002318,0.0,-3.714408734378307,-3.622600794396371,1.7309808458798734,2.576011144420346,0.004661794657479552,0.45956740493983256,0.7676790608520864,0.6478119832684764,0.3099254562962792,-0.24366307529170592,-3.2548413294384746,-2.854921733544285,2.3787928291483498,2.8859366007166254,-0.23900128063422638
0.20800000000000016,-0.017078111502082542,-1.3533868720299846,1.3506682345007575,0.7374296253762799,-0.00018620977396122698,0.07250249989447538,0.839515833202082,-0.7681627059798438,-0.5911074162984938,-0.0020570412172186193,-0.06881279999992614,-1.4425600000005856,1.406719999999386,0.8619520000002314,0.0,-3.7191574276183337,-3.624581292889242,1.7314533809952748,2.578959990060153,0.004674915983830035,0.46366903525759545,0.7706748964164207,0.6498777711609073,0.3049429411431836,-0.24852428853423342,-3.2554883923607383,-2.853906396472821,2.381331152156182,2.8839029312033366,-0.24384937255040337
0.21000000000000016,-0.01693325669295755,-1.3517089393720678,1.3491282304951744,0.7362515867472896,-0.00019027525157085841,0.072427404562497,0.8389663289583894,-0.7700020027915487,-0.5890193144951216,-0.0020327388048157207,-0.06873599999992622,-1.440950000000585,1.4051499999993866,0.8609900000002312,0.0,-3.7237910307013804,-3.6266542307497995,1.7318894434138186,2.5819937251561975,0.004701300924464255,0.4704954886465153,0.771766602023516,0.650912359525493,0.29834917454412535,-0.25364832399189785,-3.253295542054865,-2.8548876287262837,2.3828018029393117,2.880342899700323,-0.2489470230674336
0.21200000000000016,-0.01678827600957959,-1.3500321541962825,1.3475848773806467,0.7350770750201276,-0.00019436925390500437,0.07249034168898111,0.8383925878925907,-0.7716765572638618,-0.587255863580998,-0.0020470011670729823,-0.0686591999999263,-1.4393400000005843,1.4035799999993872,0.8600280000002309,0.0,-3.7288062280729233,-3.6286474312730754,1.7323139712664775,2.5851844753545157,0.004770483670246609,0.4761754456035439,0.7749613163418577,0.6459819038785317,0.2918612584617553,-0.2577222659427429,-3.2526307824693794,-2.8536861149312176,2.3782958751450094,2.877045733816271,-0.25295178227249626
0.21400000000000016,-0.016643092842491707,-1.3483562305361074,1.3460378143241474,0.7339055418038736,-0.00019847390710133129,0.07259158354394096,0.8379618300875448,-0.7735315282496191,-0.5857666081270225,-0.0020523265981634573,-0.06858239999992638,-1.4377300000005837,1.402009999999388,0.8590660000002307,0.0,-3.7339391178075085,-3.630806440030334,1.7329797667680753,2.5885078855032972,0.004829979999468327,0.4772410374658681,0.7780945348222673,0.6450189711576517,0.2881704190446617,-0.26340336226681466,-3.2566980803416405,-2.852711905208067,2.377998737925727,2.876678304547959,-0.25857338226734633
0.21600000000000016,-0.016498217621327825,-1.3466809719744137,1.3444871324220502,0.7327368181222728,-0.0002027963047829556,0.07243761058194106,0.8376292808468208,-0.775340951048537,-0.5843618408003896,-0.002161198840812157,-0.06850559999992646,-1.436120000000583,1.4004399999993886,0.8581040000002305,0.0,-3.7383614666269107,-3.6330764282001518,1.7337258357068852,2.591834536061297,0.005006214551069702,0.48085437185252455,0.7812949042367826,0.6412279599392611,0.28178707384053686,-0.26771746474028535,-3.257507094774386,-2.851781523963369,2.3749537956461464,2.873621609901834,-0.26271125018921565
0.21800000000000017,-0.016353739246835343,-1.345006160893615,1.3429326401308899,0.7315704055625014,-0.0002072628142168757,0.07223918724624019,0.8374055403993328,-0.7772461455801617,-0.5832062798856829,-0.002233254716960049,-0.06842879999992656,-1.4345100000005824,1.3988699999993894,0.8571420000002302,0.0,-3.742636114920075,-3.635480940180479,1.7346570452088816,2.5952896948486184,0.005143830805413259,0.48626663047365604,0.7827871969918822,0.6373977175729134,0.27724521451684364,-0.2731276334597431,-3.256369484446419,-2.852693743188597,2.372054762781795,2.872534909365462,-0.26798380265432986
0.22000000000000017,-0.016209502887615874,-1.3433318272263932,1.3413741708530238,0.7304060916950297,-0.00021195163977771487,0.07211817960973513,0.8371668336108696,-0.7792346389330632,-0.5821569337358522,-0.002344412780419596,-0.06835199999992664,-1.4329000000005818,1.39729999999939,0.8561800000002299,0.0,-3.7471029389428194,-3.637845492807388,1.7357698343304824,2.59877751336477,0.005327356139805348,0.49073094561436964,0.7855451871435664,0.6341270927512616,0.27167508523983147,-0.27542161482988037,-3.25637199332845,-2.8523003056638214,2.369896927081744,2.8704525986046012,-0.27009425869007503
0.22200000000000017,-0.01606549957647931,-1.3416578407101147,1.3398116387845407,0.7292435303217993,-0.00021648185192916995,0.0720016555682824,0.8369932581392439,-0.7812660342415331,-0.5812806866151901,-0.002265106075727541,-0.06827519999992672,-1.431290000000581,1.3957299999993906,0.8552180000002296,0.0,-3.7515656493910514,-3.6402874328210193,1.7370385908751431,2.602351732102474,0.00529931459720571,0.49871260978717397,0.7865657794042976,0.6325245982433546,0.2700148472093007,-0.280374239134625,-3.2528530396038775,-2.853721653416722,2.3695631891184976,2.8723665793117745,-0.2750749245374193
0.22400000000000017,-0.01592128629914401,-1.339984333538319,1.338245147815868,0.728082912253676,-0.00022093012123279487,0.07210663866764892,0.8367535858978198,-0.7832454843364421,-0.5803090340616677,-0.0022241346518124512,-0.0681983999999268,-1.4296800000005805,1.3941599999993914,0.8542560000002294,0.0,-3.7566412211319986,-3.642617752488087,1.7383937067635444,2.605820579000311,0.005312382834015968,0.5029069105658522,0.7883245914708816,0.6288082020085941,0.2620107098391026,-0.287917751020961,-3.2537343105661463,-2.854293161017205,2.3672019087721385,2.8678312888394135,-0.28260536818694504
0.22600000000000017,-0.015776980991725885,-1.3383112874792893,1.3366746170886339,0.7269235752002966,-0.00022573805438990077,0.07215265370906288,0.8365230295148903,-0.7852653636169931,-0.5796685266897301,-0.002403966578552947,-0.06812159999992688,-1.4280700000005797,1.392589999999392,0.8532940000002291,0.0,-3.7615641157296986,-3.64494247811044,1.7399023563402432,2.6094958835022717,0.005573017117749036,0.5053413733733152,0.7888687425890455,0.6271408198444768,0.25851681807215376,-0.2932413913156326,-3.2562227423563836,-2.8560737355213943,2.36704317618472,2.8680127015744254,-0.28766837419788355
0.22800000000000017,-0.01563289387450937,-1.3366388718609203,1.3351001839389671,0.7257654972800999,-0.00023086038434061619,0.07204355860825705,0.8362078091844715,-0.78721657483342,-0.5790389600983382,-0.002561164975357704,-0.06804479999992696,-1.4264600000005792,1.3910199999993929,0.8523320000002289,0.0,-3.766053033831266,-3.647123543962176,1.741483919573965,2.6131539383960583,0.005812848848131644,0.5075049860987644,0.7889466746028825,0.6229848796077528,0.2560198106388292,-0.29793791490391,-3.2585480477325017,-2.8581768693592933,2.3644687991817177,2.8691737490348874,-0.2921250660557783
0.23000000000000018,-0.015489303243011506,-1.3349672683888392,1.3335217119716678,0.7246088074087489,-0.00023613621709963906,0.0717953157489316,0.835801736040587,-0.7892359836496258,-0.5783449356754908,-0.0026379163795114445,-0.06796799999992705,-1.4248500000005784,1.3894499999993934,0.8513700000002286,0.0,-3.7701315924913965,-3.6491450162680494,1.7432384363348183,2.616739384396647,0.005966191809271985,0.5107277044615693,0.7892767941621186,0.62223682395428,0.24808325156884545,-0.30462698838611063,-3.2594038880298273,-2.8598682221059306,2.3654752602890983,2.8648226359654925,-0.29866079657683864
0.23200000000000018,-0.015346296584186736,-1.333296620702774,1.331939499244988,0.7234528669114022,-0.00024170438537679244,0.07150332941238546,0.8353238430325255,-0.7911063633399492,-0.577970248673348,-0.002784084138576689,-0.06789119999992713,-1.4232400000005778,1.387879999999394,0.8504080000002283,0.0,-3.774051258365252,-3.651027794230525,1.7450046133461339,2.6205336506284365,0.00619970091798628,0.5196575334991705,0.7919151988286494,0.6198359500547351,0.24474057708041413,-0.3051481474398731,-3.2543937248660813,-2.8591125954018755,2.364840563400869,2.8652742277088508,-0.29894844652188685
0.23400000000000018,-0.015203233358565231,-1.3316267571366125,1.3303535919806844,0.7222977087169037,-0.0002469225247087688,0.07153161281075274,0.8349317830807613,-0.7929536321518181,-0.5775790972492341,-0.002609069665988187,-0.06781439999992721,-1.421630000000577,1.3863099999993949,0.8494460000002281,0.0,-3.7788397049676505,-3.652999457484396,1.7468691656792172,2.6243010161293396,0.006075366500989204,0.5227738708162551,0.7950156281498915,0.6186079623371533,0.24129610803919185,-0.3107808217074278,-3.2560658341513955,-2.8579838293345046,2.3654771280163707,2.8655971241685316,-0.3047054552064386
0.23600000000000018,-0.015060322067025983,-1.3299574770887757,1.3287641713923852,0.7211433362241672,-0.0002518697351850304,0.07145564576962461,0.8346400239183821,-0.7947102941495879,-0.5771862463682783,-0.0024736052381308027,-0.06773759999992729,-1.4200200000005765,1.3847399999993955,0.8484840000002278,0.0,-3.7833361325534582,-3.65508828410274,1.7487792334749086,2.6280517472966576,0.005991021984166765,0.5299930234710919,0.7967839404563108,0.6177190149291514,0.23247709834965982,-0.31411989805516316,-3.2533431090823663,-2.858304343646429,2.36649824840406,2.8605288456463174,-0.30812887607099637
0.23800000000000018,-0.014917221926301632,-1.3282887581638518,1.327171511258013,0.7199890371791213,-0.00025658064787272667,0.07155007036217517,0.8343594624618909,-0.7963300671861681,-0.5771495225228856,-0.0023554563438481185,-0.06766079999992737,-1.418410000000576,1.3831699999993963,0.8475220000002276,0.0,-3.78830592981336,-3.657170424799126,1.7506939366504026,2.632050567653771,0.005922659278302881,0.5346319374877853,0.7987433449947287,0.6147542167755464,0.22434888253153362,-0.31799236283827376,-3.2536739923255746,-2.858427079804397,2.365448153425949,2.8563994501853047,-0.3120697035599709
0.24000000000000019,-0.014773981298795013,-1.3266205353755152,1.325575638792603,0.7188342684112109,-0.0002610931672197923,0.0716203137533098,0.8341113941683006,-0.797936232705011,-0.5773843839552127,-0.0022562596735328307,-0.06758399999992745,-1.4168000000005752,1.3815999999993969,0.8465600000002274,0.0,-3.793220364921075,-3.6592782919718783,1.7526987330469066,2.636249162038811,0.005872571222902011,0.5377258259377934,0.7981073673314958,0.6117642632995096,0.2150096289864702,-0.3201736475613327,-3.2554945389832817,-2.8611709246403825,2.364462996346416,2.8512587910252813,-0.3143010763384307
0.2420000000000002,-0.01463083004014484,-1.3249530726248322,1.3239766201683585,0.7176783805528352,-0.0002654167946757516,0.07157562932508665,0.8337313753415082,-0.7995093121221947,-0.5779439291878526,-0.002161813727979645,-0.06750719999992753,-1.4151900000005746,1.3800299999993975,0.845598000000227,0.0,-3.7978183319883327,-3.661171107340065,1.7547779407223658,2.6406976883363593,0.005825259423233531,0.5436630107184901,0.8025775255532055,0.6094723676260154,0.20670343936030366,-0.32654972365429497,-3.2541553212698426,-2.8585935817868595,2.3642503083483812,2.847401127696663,-0.32072446423106143
0.2440000000000002,-0.014487600605171154,-1.3232859687122942,1.322374539136959,0.7165209006096718,-0.0002696189624632197,0.07161471748684313,0.8335519562690055,-0.8010405156997757,-0.5787399715817072,-0.0021010838937340357,-0.06743039999992761,-1.4135800000005738,1.3784599999993983,0.8446360000002268,0.0,-3.8026480503924,-3.6633304887837186,1.756922814845301,2.645343878014493,0.005813462253347898,0.5463593656049278,0.8032151155267928,0.6031329144568104,0.20267189093649574,-0.3341220088238248,-3.256288684787472,-2.8601153732569258,2.3600557293021116,2.848015768950989,-0.3283085465704769
0.2460000000000002,-0.014344559009314828,-1.3216193234320526,1.3207690473632197,0.7153620117859316,-0.00027384081729386336,0.07152079792816307,0.8333226401208591,-0.8027458868697286,-0.5794444118700617,-0.00211092741532182,-0.0673535999999277,-1.4119700000005733,1.3768899999993989,0.8436740000002265,0.0,-3.807105591951293,-3.6654017483332586,1.7592953889838154,2.649954399474657,0.005879557617037047,0.5498197743458991,0.8030401940541108,0.6006230182373012,0.19687489893734522,-0.3398760537534831,-3.2572858176053936,-2.862361554279148,2.359918407221117,2.8468292984120023,-0.33399649613644605
0.2480000000000002,-0.014201821306050345,-1.3199533598742952,1.3191602732745566,0.7142016203768227,-0.00027827968620853133,0.07136885163224195,0.8329817788787285,-0.804387044331461,-0.580195704554485,-0.002219434457333982,-0.06727679999992779,-1.4103600000005725,1.3753199999993997,0.8427120000002263,0.0,-3.8113852811510185,-3.6672896542005757,1.7617248195731587,2.6546280470673826,0.006057010250701794,0.553417777943665,0.8071233136618019,0.6021590033588756,0.1947707429752789,-0.3429919022033691,-3.2579675032073534,-2.8601663405387736,2.3638838229320345,2.8493987900426614,-0.33693489195266735
0.25000000000000017,-0.014059459439002487,-1.3182877874684826,1.3175487159320767,0.7130400927891738,-0.0002826821021426815,0.07118093352392914,0.8327862029062973,-0.8057786712399375,-0.5807637938244252,-0.0022012079670750725,-0.06719999999992787,-1.408750000000572,1.3737499999994003,0.841750000000226,0.0,-3.8155416297086937,-3.669365391169372,1.7640659178236138,2.659196455179422,0.006094588273503949,0.559914892886756,0.807373217259863,0.5995679741109373,0.1894361120893074,-0.34732376449304003,-3.2556267368219376,-2.861992173909509,2.363633891934551,2.848632567268729,-0.3412291762195361
0.25200000000000017,-0.01391717114999715,-1.3166227772923826,1.3159344643814441,0.7118773819040413,-0.00028704205022661366,0.07114414450266797,0.8325050880500499,-0.8071257753162338,-0.5813554425662587,-0.002179974041966089,-0.06712319999992795,-1.4071400000005712,1.3721799999994009,0.8407880000002258,0.0,-3.820100968022052,-3.6712989615261815,1.7664594324965082,2.663805301866685,0.006128312139845487,0.5633375731154161,0.8055525793150893,0.5963440657734308,0.1892000025479104,-0.3519643155928261,-3.2567633949066357,-2.8657463822110922,2.362803498269939,2.8530053044145953,-0.3458360034529806
0.25400000000000017,-0.013775093008867818,-1.3149587428323484,1.3143175203350745,0.7107141360032699,-0.0002914043103758317,0.07103907056466616,0.8320172300171231,-0.8084720231847484,-0.5816229503856901,-0.002181130074609002,-0.06704639999992804,-1.4055300000005706,1.3706099999994017,0.8398260000002254,0.0,-3.8244613180983027,-3.6729041384417167,1.76893588091356,2.6681982319652384,0.006186701123727071,0.5679612696577407,0.807275170786332,0.591628487219215,0.18398339029548408,-0.3546302122805762,-3.2565000484405617,-2.8656289676553848,2.360564368132775,2.8521816222607224,-0.34844351115684913
0.25600000000000017,-0.013633184867772973,-1.3132955683677305,1.312697732784703,0.7095502858289513,-0.00029566156223938056,0.07095407054742278,0.8315872323088749,-0.8098937751858045,-0.5819250871593427,-0.002128625931774434,-0.06696959999992812,-1.4039200000005698,1.3690399999994023,0.8388640000002252,0.0,-3.8288640589095753,-3.6745559944390243,1.7715534005498343,2.672627770393044,0.006184704767022303,0.5717392747984994,0.8106339846743865,0.5877665234100129,0.17933708422349054,-0.3601507365354258,-3.2571247841110758,-2.8639220097646376,2.3593199239598475,2.8519648546165346,-0.35396603176840347
0.2580000000000002,-0.013491517712788528,-1.3116329556345037,1.3110750439506857,0.7083858333581368,-0.0002998797172988557,0.07083357749222237,0.8313063666133883,-0.8113444170085382,-0.5822262354072658,-0.0021090775297375693,-0.0668927999999282,-1.4023100000005693,1.367469999999403,0.837902000000225,0.0,-3.8331541903046444,-3.6763942396566747,1.7742811566188808,2.6770689462161936,0.006218457372159149,0.5713775974925152,0.8095243918907891,0.5841811146108772,0.17583385117025824,-0.36341431599674556,-3.2617765928121294,-2.8668698477658854,2.358462271229758,2.852902797386452,-0.3571958586245864
0.2600000000000002,-0.013350654497006393,-1.3099712066843765,1.309449478856556,0.707220943798037,-0.00030402640753606993,0.07043160789106752,0.8308744750635518,-0.8127825470648667,-0.5824447800498654,-0.0020733451186071093,-0.06681599999992828,-1.4007000000005687,1.3658999999994037,0.8369400000002247,0.0,-3.836628148969999,-3.6779865698025818,1.777089396305827,2.6814613253466906,0.006233484329969988,0.5717731436615371,0.8112132918544103,0.581043119395015,0.16967515284051568,-0.36680571876055484,-3.264855005308462,-2.8667732779481714,2.358132515700842,2.851136478187206,-0.36057223443058484
0.2620000000000002,-0.013210944169266036,-1.3083102290606201,1.3078211092244467,0.7060554033594411,-0.00030810585463312233,0.06985516387017808,0.8304888118781454,-0.8141848160547022,-0.5827702192979797,-0.00203972354852619,-0.06673919999992836,-1.399090000000568,1.3643299999994043,0.8359780000002245,0.0,-3.839550412613585,-3.679612837972425,1.7799595556411894,2.6859418332275755,0.006249964763339145,0.571172149134575,0.8106359306274047,0.5754910315429344,0.16355258572924922,-0.37052464594907314,-3.26837826347901,-2.8689769073450204,2.355450587184124,2.8494944189568248,-0.364274681185734
0.2640000000000002,-0.013072777214672707,-1.3066501977896703,1.306189769165569,0.7048890480019371,-0.00031212680080963136,0.06908347729666431,0.8300156354748989,-0.8156700294388162,-0.5831776787519712,-0.00201047308825452,-0.06666239999992844,-1.3974800000005674,1.3627599999994051,0.8350160000002242,0.0,-3.841837571158537,-3.681078803569052,1.7829799451585842,2.6904963397282553,0.006270498534856041,0.5778494532659878,0.8103720523677979,0.5698632363828549,0.15722018640871377,-0.3767962335415834,-3.263988117892549,-2.8707067512012543,2.352843181541439,2.8477165261369692,-0.37052573500672736
0.2660000000000002,-0.012935556695981424,-1.3049912236663817,1.3045553023578336,0.7037217004724836,-0.00031618080115734733,0.06861025934564181,0.8294870616442966,-0.8172334038677045,-0.5836737647267496,-0.0020270001738579746,-0.06658559999992852,-1.3958700000005666,1.3611899999994057,0.8340540000002239,0.0,-3.844864429059787,-3.6824249954244475,1.7861520668752635,2.6951330157189384,0.006341822986661786,0.582192717565475,0.8091964072609642,0.5633497793664669,0.1537753960371525,-0.3814354531907666,-3.262671711494312,-2.8732285881634834,2.3495018462417305,2.8489084117560908,-0.3750936302041048
0.2680000000000002,-0.012799085528455947,-1.303333513022418,1.3029174616229182,0.7025535930178033,-0.0003203312144964736,0.06823558376273892,0.8288553219818062,-0.8189203674576232,-0.5840537273401838,-0.0020752066695631545,-0.0665087999999286,-1.394260000000566,1.3596199999994065,0.8330920000002237,0.0,-3.848104980313008,-3.6835762827374383,1.789515387724421,2.699703892411754,0.006449253969046401,0.585850875132881,0.8105335621349395,0.5608374402233346,0.1513824622577838,-0.3849937540236886,-3.262254105180127,-2.873042720602499,2.3503528279477557,2.8510863546695377,-0.3785445000546422
0.2700000000000002,-0.012663284108570618,-1.3016769715281313,1.3012764313008198,0.7013850392964464,-0.00032446123733642244,0.06790070994266435,0.8282707471433322,-0.8205151610492111,-0.584276860678495,-0.002065011419974398,-0.06643199999992869,-1.3926500000005653,1.3580499999994071,0.8321300000002234,0.0,-3.8514061965930275,-3.684746899974628,1.7929131662196536,2.7041742031206875,0.006492183737150398,0.5900865666457371,0.807686373735145,0.5578935046572612,0.145995881206688,-0.38897514653992066,-3.26131962994729,-2.877060526239483,2.350806670876915,2.8501700843273756,-0.3824829628027703
0.2720000000000002,-0.012528012298646645,-1.300022020248619,1.299632413819944,0.700215943767237,-0.00032855003793318425,0.06763590496198592,0.8274756397562056,-0.8220087404379102,-0.5845477646046772,-0.002044400298380901,-0.06635519999992877,-1.3910400000005647,1.3564799999994077,0.8311680000002232,0.0,-3.854859607902669,-3.685559225984893,1.79633280031958,2.708689079331962,0.006523125881208552,0.5967204900007435,0.8079285075531172,0.5528466683193833,0.13773072455557744,-0.3939144667953581,-3.2581391179019255,-2.8776307184317758,2.3491794686389635,2.8464198038875397,-0.3873913409141495
0.2740000000000002,-0.012392860241326428,-1.2983686042507097,1.2979853629393536,0.699045844380678,-0.0003327193009896039,0.06757602866010905,0.8267079989547057,-0.8235254402951863,-0.5850496932794691,-0.0020846315282098283,-0.06627839999992885,-1.389430000000564,1.3549099999994085,0.8302060000002229,0.0,-3.85885802565568,-3.6863486547330586,1.799862762009952,2.7133860413533575,0.0066220464607751935,0.5986367556832708,0.8081135612618849,0.5489215337157963,0.13397132548978305,-0.3997133818561582,-3.2602212699724094,-2.8782350934711736,2.3487842957257485,2.8473573668431404,-0.393091335395383
0.2760000000000002,-0.012258079541316429,-1.29671670016445,1.2963353316355408,0.697874911609469,-0.0003371616065419688,0.06739035000499931,0.8259520431299009,-0.8250156519064575,-0.5854663856044668,-0.0022211527761824583,-0.06620159999992895,-1.3878200000005634,1.3533399999994091,0.8292440000002227,0.0,-3.862490863216257,-3.687094024648592,1.8034666870916543,2.7180402981287632,0.006830441831975016,0.6039072844034218,0.8131858415749229,0.5442507783834185,0.1281806613160275,-0.4057140583762367,-3.2585835788128352,-2.8739081830736692,2.347717465475073,2.846220959444791,-0.3988836165442617
0.2780000000000002,-0.012123456153873537,-1.295065657362922,1.294682264019161,0.6967030251915931,-0.0003420000748247245,0.06731169372144605,0.8255214007639573,-0.8265338081898339,-0.5859432089379469,-0.0024192341413778345,-0.06612479999992903,-1.3862100000005628,1.35176999999941,0.8282820000002223,0.0,-3.8664017302530302,-3.6882604394771508,1.8071844154283263,2.722756013384407,0.007111710221470503,0.6049176961050476,0.8121230133731203,0.5415079306754795,0.12137102575693436,-0.41191895480546253,-3.2614840341479825,-2.8761374261040302,2.348692346103806,2.844127039141341,-0.40480724458399203
0.2800000000000002,-0.011989340429569596,-1.2934156861703077,1.2930264049468152,0.6955299445141461,-0.00034729476445725775,0.06705786215197061,0.8249855963071775,-0.8279295361729065,-0.5865403387235321,-0.0026473448162666192,-0.06604799999992911,-1.384600000000562,1.3501999999994105,0.8273200000002221,0.0,-3.8698041678401274,-3.6892368189813767,1.8109030992922177,2.727580123860956,0.007431949141741334,0.6040320328881841,0.8091300742832831,0.5379762864594145,0.11680676890079289,-0.41656215643409084,-3.265772134951943,-2.8801067446980935,2.348879385751632,2.8443868927617486,-0.4091302072923495
0.2820000000000002,-0.011856239125052308,-1.2917672036590724,1.2913679035212444,0.6943557630500283,-0.000352811097194398,0.06655065225864389,0.8242412556175861,-0.8292507127854251,-0.5870907320588427,-0.002758166368570126,-0.06597119999992919,-1.3829900000005615,1.3486299999994114,0.8263580000002219,0.0,-3.8724515533895905,-3.6898617543804586,1.8146516340487961,2.732393831609782,0.007626059110394086,0.606401918480448,0.8105812935779967,0.5363452426451382,0.11178393898686026,-0.4225787260095853,-3.2660496349091424,-2.879280460802462,2.350996876693934,2.8441777705966422,-0.4149526668991912
0.2840000000000002,-0.011724148601948554,-1.2901200311144116,1.2897070688403816,0.6931804803577362,-0.0003585417941167498,0.06604526155187719,0.8235862723303164,-0.8304173404314241,-0.5876413461460844,-0.002865348461175915,-0.06589439999992927,-1.3813800000005607,1.347059999999412,0.8253960000002216,0.0,-3.875033173450545,-3.6905594435209585,1.8183644426113386,2.73723001704417,0.007818960430762783,0.6085254090701278,0.8080847989151582,0.5319826875174022,0.10978663190557528,-0.4263678624703188,-3.2665077643804175,-2.8824746446058005,2.350347130128741,2.847016648949745,-0.418548902039556
0.2860000000000002,-0.01159308639252706,-1.2884744770625731,1.2880439153962346,0.692004535076081,-0.00036414746016405995,0.06553110471074654,0.822777025919227,-0.8315767220734318,-0.5879726408276095,-0.0028028330236550695,-0.06581759999992935,-1.3797700000005602,1.3454899999994125,0.8244340000002214,0.0,-3.877519218958044,-3.6909764743512,1.8221441910477727,2.741926230205228,0.007823576914549116,0.6108302032131457,0.8097571580566632,0.5280029671497237,0.10457498924648344,-0.4256480948009586,-3.2666890157448982,-2.881219316294537,2.3501471581974966,2.8465012194517114,-0.4178245178864095
0.2880000000000002,-0.011463036280433806,-1.2868302783934036,1.2863784867624355,0.6908278859312385,-0.0003693497502638691,0.0650250560466276,0.8220993345847913,-0.8327143168996197,-0.5883245724212618,-0.002601145049904571,-0.06574079999992943,-1.3781600000005594,1.3439199999994134,0.8234720000002211,0.0,-3.879956384280674,-3.6915235148597536,1.825979353192463,2.7466512669773215,0.007669867004371457,0.6130736167422514,0.8093539952469543,0.5258455366318464,0.10207479495066073,-0.43085501432137546,-3.2668827675384224,-2.882169519612799,2.3518248898243095,2.8487260619279824,-0.423185147317004
0.2900000000000002,-0.011333984230711249,-1.2851874836659223,1.2847110324798499,0.6896508499213422,-0.00037423343852618256,0.06452602486127841,0.8213973637406919,-0.8337271412928666,-0.5885180049481512,-0.002441844131156742,-0.06566399999992951,-1.3765500000005588,1.342349999999414,0.8225100000002208,0.0,-3.8823427055828894,-3.6919804523002404,1.829790107582356,2.751273392754131,0.007558647867972857,0.6157386799468852,0.8091200560498131,0.5232252180879656,0.09976141174469515,-0.4344386968688104,-3.266604025636004,-2.882860396250427,2.3530153256703215,2.851034804498826,-0.4268800490008376
0.2920000000000002,-0.01120585877213126,-1.283546101505736,1.2830417378593681,0.6884737462017854,-0.0003788475207885972,0.06406272928999425,0.8206910800931985,-0.8346473102408483,-0.5885518597784275,-0.0023070411312073264,-0.0655871999999296,-1.374940000000558,1.3407799999994148,0.8215480000002205,0.0,-3.8847607235187422,-3.692374893058964,1.8335931926480142,2.75578546948181,0.007470878023969002,0.6167522818731129,0.8105464358919726,0.5245173930463528,0.09634381037120256,-0.4381358341725508,-3.2680084416456294,-2.8818284571669914,2.358110585694367,2.8521292798530125,-0.4306649561485818
0.2940000000000002,-0.011078797592448529,-1.281905961514186,1.2813712012028564,0.6872966848049002,-0.00038323591469280034,0.06353058984136581,0.820069995774962,-0.8352683282558913,-0.5885306984425398,-0.002194196952101563,-0.06551039999992968,-1.3733300000005575,1.3392099999994154,0.8205860000002203,0.0,-3.886918433828616,-3.6928389683295015,1.8372255159286426,2.760258489525685,0.007404335077987864,0.6234877812269843,0.8083665431713949,0.5213695226062292,0.09228940904644586,-0.4408468573021524,-3.2634306526016315,-2.8844724251581066,2.3585950385348715,2.852547898572131,-0.4334425222241645
0.2960000000000002,-0.010952199585326255,-1.280267307034428,1.2796995413563859,0.6861197293165681,-0.0003874227623365368,0.06329900356113673,0.8193272398789553,-0.8358299232352903,-0.5884777441660863,-0.00209342382186822,-0.06543359999992976,-1.3717200000005567,1.337639999999416,0.8196240000002201,0.0,-3.889855285331143,-3.693073323035372,1.8408512042969347,2.7647074372777567,0.007348456045967037,0.6272326279617628,0.8074586454239463,0.5186558751822622,0.08704867084326696,-0.44729365540356,-3.26262265736938,-2.8856146776114255,2.359507079479197,2.8517561081210236,-0.43994519935759296
0.2980000000000002,-0.010825948597215347,-1.2786301852804605,1.2780269130758364,0.6849427719368496,-0.00039148104272174693,0.0631254940554545,0.8185608769837623,-0.8363141402747808,-0.5884786898592097,-0.0020291401926050786,-0.06535679999992984,-1.3701100000005562,1.3360699999994168,0.8186620000002198,0.0,-3.892924722025531,-3.6932133568814547,1.8444528932433901,2.7691944537766044,0.007331049772245118,0.6320770060978511,0.8051569383813698,0.5151960998897122,0.08338746991338142,-0.453562698166602,-3.26084771592768,-2.888056418500085,2.3596489931331024,2.8525819236899856,-0.44623164839435686
0.3000000000000002,-0.010699814019683139,-1.2769947996119488,1.2763533824440596,0.6837659344497734,-0.0003954675947409433,0.06306728876610412,0.8176928342558675,-0.8367653158883924,-0.5884187435380774,-0.0019932760095981816,-0.06527999999992992,-1.3685000000005556,1.3344999999994174,0.8177000000002196,0.0,-3.896297400431922,-3.6931416310833542,1.8480595710225414,2.773636748785104,0.007343978001819716,0.6330374426140917,0.807009439806319,0.5167807482019496,0.08240574834257544,-0.45810954517635555,-3.26325995781783,-2.886132191277035,2.364840319224491,2.8560424971276794,-0.4507655671745358
0.3020000000000002,-0.010574086925034974,-1.2753608610251244,1.2746794989415244,0.682589632869875,-0.0003994047091305767,0.06286354732408274,0.8169692934122442,-0.8369417512675795,-0.5881507899492174,-0.0019685571948167167,-0.06520319999993,-1.3668900000005548,1.3329299999994182,0.8167380000002192,0.0,-3.899248675922142,-3.693214358169711,1.8514850150681526,2.7779230205847982,0.007368528959218128,0.636331762668632,0.8067643452505078,0.5167844694724157,0.0747591771683764,-0.4601067053559085,-3.26291691325351,-2.8864500129192034,2.3682694845405683,2.8526821977531744,-0.45273817639669034
0.3040000000000002,-0.010448710280474276,-1.2737283318826296,1.2730056795298985,0.6814133802391705,-0.00040327570976287963,0.06268832228034897,0.816264571247445,-0.8369097058130043,-0.5881263153521925,-0.001935500316151466,-0.0651263999999301,-1.3652800000005543,1.3313599999994188,0.815776000000219,0.0,-3.902252482188948,-3.6932570851742166,1.854762681058918,2.782379048648675,0.007383053986899962,0.6421522660135934,0.8066556307689768,0.5123321414708043,0.07029795731169469,-0.4627364163732004,-3.2601002161753545,-2.88660145440524,2.3670948225297224,2.85267700596037,-0.4553533623863004
0.3060000000000002,-0.010323326186474031,-1.2720971159431629,1.2713317955412544,0.6802371921896341,-0.00040707698383437007,0.06269204700012233,0.8156079697333812,-0.8369419943220884,-0.5880940247681993,-0.0019006370357452197,-0.06504959999993018,-1.3636700000005535,1.3297899999994194,0.8148140000002188,0.0,-3.905740042295676,-3.69331468267071,1.8580875281495068,2.7868286137615454,0.007394690849159835,0.6460975426121074,0.8051065118742708,0.5049654740611124,0.0670655604977936,-0.46543279651776975,-3.2596424996835687,-2.8882081707964393,2.363053002210619,2.853894174259339,-0.4580381056686099
0.3080000000000002,-0.010197878926508905,-1.27046727505557,1.2696574149747468,0.6790612723394154,-0.0004108075998526919,0.06272362998256334,0.8149204437964849,-0.8371902832538473,-0.5879599251093736,-0.0018653080091609107,-0.06497279999993026,-1.362060000000553,1.3282199999994202,0.8138520000002185,0.0,-3.909307309435334,-3.6932740116778975,1.8615791155826034,2.7912018480234257,0.0074049020587950735,0.6491759553608433,0.8066259646652844,0.5009337288867053,0.06062891648317473,-0.46988330858029426,-3.2601313540744905,-2.886648047012613,2.3625128444693084,2.8518307645066003,-0.4624784065214992
0.3100000000000002,-0.010072431261749601,-1.2688385032759302,1.267982495424538,0.6778853423637219,-0.0004144918129568219,0.06272383237965191,0.8143858898198253,-0.8374597751044448,-0.5879649878467692,-0.001842106552064991,-0.06489599999993034,-1.3604500000005522,1.3266499999994208,0.8128900000002183,0.0,-3.912789945436864,-3.69340476339142,1.8651024004408514,2.795672997974159,0.007427855514881396,0.6493387168100982,0.8084067917870517,0.49652206356731504,0.05341908636020527,-0.4714381659627262,-3.263451228626766,-2.8849979716043683,2.3616244640081665,2.849092084334364,-0.4640103104478448
0.3120000000000002,-0.009947390223371396,-1.267210489502788,1.2663069621576246,0.6767090475488883,-0.00041810981104951537,0.06252051918910251,0.8140068865710338,-0.8377666334567332,-0.588147407416801,-0.0018089990463467515,-0.06481919999993042,-1.3588400000005516,1.3250799999994216,0.811928000000218,0.0,-3.9156946930425445,-3.6937229910836367,1.8686710148148467,2.8002758945033004,0.007439056587531802,0.6496689700130777,0.8070615755195094,0.4952105466206525,0.050773788970103255,-0.4763418130291499,-3.266025723029467,-2.8866614155641273,2.363881561435499,2.851049683473404,-0.4689027564416181
0.3140000000000002,-0.00982305551533134,-1.265583392776964,1.2646310849308118,0.6755326573112391,-0.0004216926952635381,0.06216735402002776,0.8135483629120348,-0.8379386134064735,-0.5881951188245913,-0.0017914421070113701,-0.0647423999999305,-1.3572300000005508,1.3235099999994222,0.8109660000002177,0.0,-3.9181454637311313,-3.693893232243868,1.8721560252918894,2.8047867039214407,0.007466911818818542,0.6539893539552358,0.8051241625614316,0.49271596814595486,0.04567926107566654,-0.4814359460066404,-3.2641561097758953,-2.888769069682436,2.3648719934378444,2.8504659649971074,-0.4739690341878219
0.3160000000000002,-0.009699172003733943,-1.2639574004945222,1.2629550110925067,0.674356103960559,-0.0004252679919819465,0.06194175579869946,0.8129961412208604,-0.8380369191524872,-0.588276675340038,-0.0017876483592042184,-0.06466559999993059,-1.3556200000005503,1.3219399999994228,0.8100040000002174,0.0,-3.920909147344569,-3.693888140813366,1.875595707286103,2.8093247675503723,0.007509812928758772,0.6569873884111272,0.8045045288186248,0.48836413771479087,0.039801720783100576,-0.48323007930278766,-3.2639217589334417,-2.8893836119947416,2.3639598450008936,2.849126488333473,-0.47572026637402887
0.3180000000000002,-0.00957569443545813,-1.2623324846571233,1.2612786646361116,0.673179232643778,-0.00042881238085922744,0.06173878413790569,0.8124579186994035,-0.8381732281975292,-0.5884356583904993,-0.001772194438640456,-0.06458879999993067,-1.3540100000005497,1.3203699999994236,0.8090420000002172,0.0,-3.9237055719875267,-3.6938596113007636,1.8790705916354997,2.8139236898955993,0.007539491008876499,0.6615802145593592,0.8061790711466479,0.48628655077754307,0.039280302183346674,-0.4888691479214716,-3.2621253574281672,-2.8876805401541157,2.3653571424130426,2.853203992078946,-0.4813296569125951
0.32000000000000023,-0.009452387938828853,-1.2607083701614072,1.259602157574328,0.6720025913685919,-0.00043236048653647296,0.0616532483146386,0.8120572478580687,-0.838253530891845,-0.5883206375930781,-0.0017740528386227538,-0.06451199999993075,-1.352400000000549,1.3187999999994242,0.808080000000217,0.0,-3.9268071634856434,-3.693991620233044,1.8825113994161202,2.8183265092131924,0.007588265927342368,0.6637443451384788,0.8091015646799186,0.48638034253270945,0.030338696419739967,-0.49476066232239313,-3.263062818347165,-2.8848900555531256,2.3688917419488296,2.8486652056329325,-0.4871723963950508
0.32200000000000023,-0.009329361511104065,-1.259084654951908,1.2579258893201613,0.6708255398039419,-0.0004359430395442116,0.06151321386239369,0.8118576047496854,-0.8381341270832913,-0.5885257823249915,-0.001791276503869317,-0.06443519999993083,-1.3507900000005484,1.317229999999425,0.8071180000002167,0.0,-3.9297420685792144,-3.694389115744489,1.8858051583843858,2.8229619512628084,0.007654395468469545,0.6680845504123482,0.8097436679985578,0.4829082106928996,0.026207468592412065,-0.49739943233559225,-3.2616575181668663,-2.884645447745931,2.3687133690772852,2.84916941985522,-0.48974503686712273
0.32400000000000023,-0.009206432973235628,-1.257461242588346,1.256249827717657,0.669648171984541,-0.0004395392440564998,0.0614642689342183,0.811706181780952,-0.8380308012521422,-0.5886839097004722,-0.0017981022561440968,-0.06435839999993091,-1.3491800000005476,1.3156599999994256,0.8061560000002165,0.0,-3.9329161276777618,-3.694842024390948,1.8891039142212946,2.827571107772874,0.007709269809573234,0.6728559083335757,0.8043993645893761,0.4808110629434301,0.019113500488314377,-0.49942253310099893,-3.260060219344186,-2.890442659801572,2.3699149771647248,2.8466846082611883,-0.4917132632914257
0.32600000000000023,-0.009083402864267261,-1.2558387964891122,1.2545741802018022,0.6684701861997085,-0.0004431240996057534,0.0615150544841838,0.8112230496169344,-0.8378237579274445,-0.5889928924161927,-0.0017924277746268194,-0.064281599999931,-1.347570000000547,1.3140899999994262,0.8051940000002161,0.0,-3.9363666337664633,-3.6947919070156745,1.892317379033234,2.83229852470982,0.0077502513757839574,0.6737818147598866,0.8042855111263534,0.4756141070007174,0.012275850243644143,-0.5064528506632084,-3.2625848190065767,-2.890506395889321,2.3679314860339513,2.844574374953464,-0.4987025992874245
0.32800000000000024,-0.008960584047591754,-1.254217209705447,1.2528987329455763,0.6672913512471913,-0.00044674662639945583,0.061409408337753525,0.8107933918326327,-0.8377236281129908,-0.5894174762586046,-0.0018112633968511965,-0.06420479999993108,-1.3459600000005463,1.312519999999427,0.8042320000002159,0.0,-3.9393800482407126,-3.6947822973705775,1.8955996228801082,2.8371241493581456,0.007818688853825882,0.6774434642841204,0.8054233231350386,0.4719346511705116,0.009342156977776676,-0.5102931365378646,-3.2619365839565924,-2.889358974235539,2.3675342740506196,2.8464663063359223,-0.5024744476840387
0.33000000000000024,-0.008837889568113535,-1.2525962580838867,1.2512234082997409,0.6661119620595188,-0.00045040124078946114,0.06134723973910905,0.8104758107801356,-0.8376623229177045,-0.5896945938362382,-0.001827307195002642,-0.06412799999993116,-1.3443500000005457,1.3109499999994276,0.8032700000002156,0.0,-3.9425022127424687,-3.6949042039982074,1.898905390492649,2.8418579366690317,0.007884477580599649,0.6812218609135856,0.8065848780750848,0.46783739838985733,0.0038287739378380496,-0.5144684914048322,-3.261280351828883,-2.8883193259231223,2.3667427888825063,2.84568671060687,-0.5065840138242326
0.33200000000000024,-0.008715234972248893,-1.2509757276821414,1.2495481113779723,0.6649319495266008,-0.00045408768266939334,0.061327297932320834,0.810265200872731,-0.837648460884246,-0.590006266458979,-0.0018432209399661097,-0.06405119999993124,-1.342740000000545,1.3093799999994284,0.8023080000002154,0.0,-3.945735661925707,-3.695159036178717,1.9022436562882614,2.846628684633986,0.007950542167254299,0.6820389548765108,0.8076393088974753,0.46360488064781924,-0.0002796971503989125,-0.5199399295533926,-3.2636967070491965,-2.887519727281242,2.3658485369360807,2.846348987483587,-0.5119893873861383
